!!!!SEGMENT: pl-wtm--r-47-n--002_noskowski-zygmunt--quatuor-en-mi-mineur-moderato-scherzando.krn
!!!cenid: 18xx:2726
!!!COM: Noskowski, Zygmunt
!!!COM-rismID: pe106604
!!!CDT: 1846/05/02-1909/07/23
!!!CNT: Polish
!!!OPR: Quatuor en mi mineur
!!!OTL: Moderato scherzando
!!!OMV: 002
!!!PDT:
!!!AGN: Secular; String quartet
!!!SMS-siglum: PL-Wtm
!!!SMS-shelfmark: R 47/N
!!!SMS-shelfwork: 001-002 M
!!!SMS-variant:
!!!SMS-altvar:
!!!NIFC-rismSourceID: 1001100158
!!!NIFC-islandoraID:
!!!URL-pdf-islandora:
!!!URL-scan:
!!!ONB-nifc: UWAGA: części Kwartetu: 1. Allegro espressivo, 2. Moderato scherʒando, 3. Largo tragico, 4. Allegro feroce
!!!AIN: 1 cello 1 viola 2 violn
!!!key:
**kern	**dynam	**kern	**dynam	**kern	**dynam	**kern	**dynam
*part4	*part4	*part3	*part3	*part2	*part2	*part1	*part1
*staff4	*	*staff3	*	*staff2	*	*staff1	*
*Icello	*	*Iviola	*	*Ivioln	*	*Ivioln	*
*I"[Violoncello]	*	*I"[Viola]	*	*I"[Violino II]	*	*I"[Violino I]	*
*mI"Violoncello	*	*mI"Viola	*	*mI"Violino II	*	*mI"Violino I	*
*I'	*	*I'	*	*I'	*	*I'	*
*mI'vc	*	*mI'va	*	*mI'vn II	*	*mI'vn I	*
*clefF4	*	*clefC3	*	*clefG2	*	*clefG2	*
*k[]	*	*k[]	*	*k[]	*	*k[]	*
*a:	*	*a:	*	*a:	*	*a:	*
*M2/4	*	*M2/4	*	*M2/4	*	*M2/4	*
=1	=1	=1	=1	=1	=1	=1	=1
!!!OMD:
!!!OMD-mod: Moderato scherzando
!LO:MO:mod=!LO&colon;TX&colon;a&colon;i&colon;t=pizz.	!	!	!	!	!	!	!
!LO:TX:a:i:t=piʒʒ.	!	!	!	!	!	!	!
!LO:TX:a:i:t=Moderato scherʒando:mod=	!	!LO:TX:a:i:t=Moderato scherʒando:mod=	!	!LO:TX:a:i:t=Moderato scherʒando:mod=	!	!LO:TX:a:i:t=Moderato scherʒando:mod=	!
4C/	mf >	2r	.	2r	.	2r	.
4GG#X/	.	.	.	.	.	.	.
=2	=2	=2	=2	=2	=2	=2	=2
4C/	.	2r	.	2r	.	2r	.
4GG#X/	.	.	.	.	.	.	.
=3	=3	=3	=3	=3	=3	=3	=3
4C/	.	2r	.	2r	.	2r	.
4GG#X/	]]	.	.	.	.	.	.
=4	=4	=4	=4	=4	=4	=4	=4
4C/	p	4r	.	4r	.	4r	.
!	!	!	!LO:DY:rj	!	!LO:DY:rj	!	!LO:DY:rj
4GG#X/	.	8E'/L	p	8c'/L	p	8e'/L	p
.	.	8E'/J	.	8B'/J	.	8d'/J	.
=5	=5	=5	=5	=5	=5	=5	=5
4C/	.	4E/	.	4A/	.	4c/	.
4GG#X/	.	4E/	.	(16B/LL	.	(16d/LL	.
.	.	.	.	16c/J	.	16e/J	.
.	.	.	.	8d/J)	.	8f/J)	.
=6	=6	=6	=6	=6	=6	=6	=6
4C/	.	[4E/	.	[4c/	.	[4e/	.
4GG#X/	.	8E/]	.	8c/]	.	8e/]	.
.	.	8r	.	8r	.	8r	.
=7	=7	=7	=7	=7	=7	=7	=7
4C/	.	4r	.	4r	.	4r	.
4GG#X/	.	8E'/L	.	8c'/L	.	8e'/L	.
.	.	8E'/J	.	8B'/J	.	8d'/J	.
=8	=8	=8	=8	=8	=8	=8	=8
4C/	.	4E/	.	4A/	.	4c/	.
4GG#X/	.	4E/	.	(16B/LL	.	(16d/LL	.
.	.	.	.	16c/J	.	16e/J	.
.	.	.	.	8d/J)	.	8f/J)	.
=9	=9	=9	=9	=9	=9	=9	=9
4C/	.	4E/	.	4c/	.	4e/	.
4GG#X/	.	8E'/L	.	8c'/L	.	8e'/L	.
.	.	8E'/J	.	8c'/J	.	8e'/J	.
=10	=10	=10	=10	=10	=10	=10	=10
4AA/	<	4A/	<	4c/	<	4e/	<
4EE/	[[	4G/	[[	16c/LL	.	(16e/LL	.
.	.	.	.	16d/J	.	16f/J	.
!	!	!	!	!	!LO:MO:mod=[[	!	!
.	.	.	.	8e/J	[	8g/J)	[[
=11	=11	=11	=11	=11	=11	=11	=11
!	!LO:MO:null:mod=>	!	!	!	!LO:MO:mod=!null:null	!	!
4DD^/	.	4F^/	>	4f^/	>	4a^/	.
!	!LO:MO:mod=.	!	!	!	!LO:MO:null:mod=>	!	!
8EE/L	>	8G'/L	.	(16f/LL	.	(16a/LL	>
.	.	.	.	16e/J	.	16g/J	.
8FF/J	]]	8A'/J	]	8d/J)	]]	8f/J)	]]
!!LO:PB:g=original
!!LO:REH:t=C
=12	=12	=12	=12	=12	=12	=12	=12
!LO:TX:b:i:t=C:color=blue:mod=	!	!	!	!	!	!LO:TX:a:i:t=C:color=blue:mod=	!
!LO:ART:color=blue	!	!	!	!	!	!	!
8DD'/L	.	4dd\	.	16b-X'\LL	.	16gg'\LL	.
.	.	.	.	16dd'\	.	16aa'\	.
!LO:ART:color=blue	!	!	!	!	!	!	!
8DD'/J	.	.	.	16gg'\	.	16bb-X'\	.
.	.	.	.	16ffn'\JJ	.	16ddd'\JJ	.
!LO:MO:mod=!null:null	!	!	!	!	!	!	!
!LO:ART:color=blue	!	!	!	!	!	!	!
4DD^/	.	4b-X\	.	16ee-X'\LL	.	16gg'\LL	.
!	!LO:MO:mod=!null:null	!	!LO:MO:mod=!null:null	!	!LO:MO:mod=!null:null	!	!
!	!LO:HP:a:t=crescendo	!	!LO:HP:t=crescendo	!	!LO:HP:t=crescendo	!	!LO:MO:null:mod=<
.	<	.	<	16dd'\	<	16bb-'\	.
.	.	.	.	16cc'\	.	16dd'\	.
!	!	!	!	!	!	!	!LO:MO:mod=!null:null
!	!	!	!	!	!	!	!LO:HP:t=crescendo
!	!	!	!	!	!	!	!LO:MO:mod=.
.	.	.	.	16b-'\JJ	.	16gg'\JJ	<
=13	=13	=13	=13	=13	=13	=13	=13
!LO:MO:mod=!null:null	!	!	!	!	!	!	!
!LO:ART:color=blue	!	!	!	!	!	!	!
16DD'/LL	.	4dd\	.	16een'\LL	.	16gg#X'\LL	.
!LO:MO:mod=!null:null	!	!	!	!	!	!	!
!LO:ART:color=blue	!	!	!	!	!	!	!
16DD'/J	.	.	.	16ff'\	.	16aa'\	.
!LO:MO:mod=!null:null	!	!	!	!	!	!	!
!LO:ART:color=blue	!	!	!	!	!	!	!
8DD'/J	.	.	.	16gg#X'\	.	16bbn'\	.
.	.	.	.	16ff'\JJ	.	16ddd'\JJ	.
!LO:MO:mod=!null:null	!	!	!	!	!	!	!
!LO:ART:color=blue	!	!	!	!	!	!	!
[4DD^/	.	4bn\	.	16ee'\LL	.	16gg#'\LL	.
.	.	.	.	16dd'\	.	16bb'\	.
.	.	.	.	16cc'\	.	16ee'\	.
.	.	.	.	16bn'\JJ	.	16gg#'\JJ	.
=14	=14	=14	=14	=14	=14	=14	=14
8DD/]	.	4ee\	.	16cc'\LL	.	16aa'\LL	.
.	.	.	.	16ee'\	.	16bb'\	.
8r	.	.	.	16aa'\	.	16ccc'\	.
.	.	.	.	16ggn'\JJ	.	16eee'\JJ	.
4r	.	4cc\	.	16ff'\LL	.	16aa'\LL	.
.	.	.	.	16ee'\	.	16ccc'\	.
.	.	.	.	16dd'\	.	16ee'\	.
.	.	.	.	16cc'\JJ	.	16aa'\JJ	.
=15	=15	=15	=15	=15	=15	=15	=15
!LO:MO:mod=!LO&colon;TX&colon;a&colon;i&colon;t=pizz.	!	!	!	!	!	!	!
!LO:TX:a:i:t=piʒʒ.	!	!	!	!	!LO:DY:rj	!	!
4B\	f	4r	.	16dd'\LL	f	16gg#X'\LL	f
.	.	.	.	16b'\	.	16aa'\	.
.	.	.	.	16dd'\	.	16gg#'\	.
.	.	.	f	16b'\JJ	.	16aa'\JJ	.
!	!	!LO:TX:a:i:t=arco	!	!	!	!	!
4G#X\	.	8f'\L	.	16dd'\LL	.	16gg#'\LL	.
.	.	.	.	16b'\	.	16aa'\	.
.	.	8e'\J	.	16dd'\	.	16gg#'\	.
.	.	.	.	16b'\JJ	.	16aa'\JJ	.
=16	=16	=16	=16	=16	=16	=16	=16
4F\	.	4d\	.	16dd'\LL	.	16gg#X'\LL	.
.	.	.	.	16b'\	.	16aa'\	.
.	.	.	.	16dd'\	.	16gg#'\	.
.	.	.	.	16b'\JJ	.	16aa'\JJ	.
4D\	.	(16e\LL	.	16dd'\LL	.	16gg#'\LL	.
.	.	16f\J	.	16b'\	.	16aa'\	.
.	.	8g\J)	.	16dd'\	.	16gg#'\	.
.	.	.	.	16b'\JJ	.	16aa'\JJ	.
=17	=17	=17	=17	=17	=17	=17	=17
4BB/	.	[4f\	.	16dd'\LL	.	16gg#X'\LL	.
.	.	.	.	16b'\	.	16aa'\	.
.	.	.	.	16dd'\	.	16gg#'\	.
.	.	.	.	16b'\JJ	.	16aa'\JJ	.
4GG#X/	.	8f\]	.	16dd'\LL	.	16gg#'\LL	.
.	.	.	.	16b'\	.	16aa'\	.
.	.	8r	.	16dd'\	.	16gg#'\	.
.	.	.	.	16b'\JJ	.	16aa'\JJ	.
!!LO:LB:g=original
=18	=18	=18	=18	=18	=18	=18	=18
4EE/	.	4r	.	16dd'\LL	.	16ggn'\LL	.
.	.	.	.	16b-X'\	.	16aa'\	.
.	.	.	.	16dd'\	.	16gg'\	.
.	.	.	.	16b-'\JJ	.	16aa'\JJ	.
4B-X\	.	8g'\L	.	16dd'\LL	.	16gg'\LL	.
.	.	.	.	16b-'\	.	16aa'\	.
.	.	8f'\J	.	16dd'\	.	16gg'\	.
.	.	.	.	16b-'\JJ	.	16aa'\JJ	.
=19	=19	=19	=19	=19	=19	=19	=19
4G\	.	4e\	.	16dd'\LL	.	16gg'\LL	.
.	.	.	.	16b-X'\	.	16aa'\	.
.	.	.	.	16dd'\	.	16gg'\	.
.	.	.	.	16b-'\JJ	.	16aa'\JJ	.
4E\	.	(16f\LL	.	16dd'\LL	.	16gg'\LL	.
.	.	16g\J	.	16b-'\	.	16aa'\	.
.	.	8a\J)	.	16dd'\	.	16gg'\	.
.	.	.	.	16b-'\JJ	.	16aa'\JJ	.
=20	=20	=20	=20	=20	=20	=20	=20
4D/	.	2g\	.	16dd'\LL	>	16gg'\LL	>
.	>	.	>	16b-X'\	.	16aa'\	.
.	.	.	.	16dd'\	.	16gg'\	.
.	.	.	.	16b-'\JJ	.	16aa'\JJ	.
4BB-X/	.	.	.	16dd'\LL	.	16gg'\LL	.
.	.	.	.	16b-'\	.	16aa'\	.
.	.	.	.	16dd'\	]	16gg'\	.
.	]	.	]	16b-'\JJ	.	16aa'\JJ	]]
!!LO:REH:t=D
=21	=21	=21	=21	=21	=21	=21	=21
!LO:TX:b:i:t=D:color=blue:mod=	!	!	!	!	!	!LO:TX:a:i:t=D:color=blue:mod=	!
4AA/	.	4g\	mf	16cc#X'\LL	mf	16gg#X'\LL	mf
.	.	.	.	16a'\	.	16aa'\	.
.	.	.	.	16cc#'\	.	16bb-X'\	.
.	.	.	.	16a'\JJ	.	16aa'\JJ	.
4r	.	8f'\L	.	16cc#'\LL	.	16bb-'\LL	.
.	.	.	.	16a'\	.	16aa'\	.
.	.	8e'\J	.	16cc#'\	.	16gg#'\	.
.	.	.	.	16a'\JJ	.	16aa'\JJ	.
=22	=22	=22	=22	=22	=22	=22	=22
2r	.	8A'\L	.	16cc#X'\LL	.	16gg#X'\LL	.
.	.	.	.	16a'\	.	16aa'\	.
.	.	8e'\J	.	16cc#'\	.	16bb-X'\	.
.	.	.	.	16a'\JJ	.	16aa'\JJ	.
.	.	4g^\	.	16cc#'\LL	.	16bb-'\LL	.
.	.	.	.	16a'\	.	16aa'\	.
.	.	.	.	16cc#'\	.	16ggn'\	.
.	.	.	.	16ee'\JJ	.	16bb-'\JJ	.
=23	=23	=23	=23	=23	=23	=23	=23
4B-X\	mf	8e'\L	.	16gg'\LL	.	16aa'\LL	.
.	.	.	.	16dd'\	.	16bb-X'\	.
.	.	8f'\J	.	16b-X'\	.	16ddd'\	.
.	.	.	.	16dd'\JJ	.	16bb-'\JJ	.
4G\	.	4d^\	.	16gg'\LL	.	16aa'\LL	.
.	.	.	.	16dd'\	.	16bb-'\	.
.	.	.	.	16b-'\	.	16ddd'\	.
.	.	.	.	16dd'\JJ	.	16bb-'\JJ	.
!!LO:LB:g=original
=24	=24	=24	=24	=24	=24	=24	=24
4F\	.	8c'/L	.	16gg'\LL	.	16gg#X'\LL	.
.	>	.	.	16ff'\	.	16aa'\	.
.	.	8B-X'/J	>	16dd'\	.	16ddd'\	>
.	.	.	.	16ff'\JJ	>	16bb-X'\JJ	.
4D\	.	4A^/	.	16gg'\LL	.	16gg-X'\LL	.
.	.	.	.	16ff'\	.	16aa'\	.
.	]	.	]	16dd'\	.	16ddd'\	.
.	.	.	p	16ff'\JJ	] p	16aa'\JJ	]
=25	=25	=25	=25	=25	=25	=25	=25
4FF/	.	4e-X\	.	16ee-X'\LL	.	16gg#X'\LL	p
.	.	.	.	16cc'\	.	16aa'\	.
.	.	.	.	16ee-'\	.	16bb-X'\	.
.	.	.	.	16cc'\JJ	.	16aa'\JJ	.
4r	.	8d'\L	.	16ee-'\LL	.	16bb-'\LL	.
.	.	.	.	16cc'\	.	16aa'\	.
.	.	8c'\J	.	16ee-'\	.	16gg#'\	.
.	.	.	.	16cc'\JJ	.	16aa'\JJ	.
=26	=26	=26	=26	=26	=26	=26	=26
2r	.	8F'/L	.	16ee-X'\LL	.	16gg#X'\LL	.
.	.	.	.	16cc'\	.	16aa'\	.
.	.	8c'/J	.	16ee-'\	.	16bb-X'\	.
.	.	.	.	16cc'\JJ	.	16aa'\JJ	.
.	.	4e-X^\	.	16ee-'\LL	.	16gg#'\LL	.
.	.	.	.	16cc'\	.	16aa'\	.
.	.	.	.	16ff'\	.	16ddd'\	.
.	.	.	.	16aa'\JJ	.	16ccc'\JJ	.
=27	=27	=27	=27	=27	=27	=27	=27
!	!LO:DY:rj	!	!	!	!	!	!
4F#X\	p	8c'\L	.	16ff'\LL	.	16aa'\LL	.
.	.	.	.	16dd-X'\	.	16bb-X'\	.
.	.	8d-X'\J	.	16ff'\	.	16ccc'\	.
.	.	.	.	16dd-'\JJ	.	16bb-'\JJ	.
4D-X/	.	4B-X^/	.	16ff'\LL	.	16ccc'\LL	.
.	.	.	.	16dd-'\	.	16bb-'\	.
.	.	.	.	16ff'\	.	16aa'\	.
.	.	.	.	16dd-'\JJ	.	16bb-'\JJ	.
=28	=28	=28	=28	=28	=28	=28	=28
4BB-X/	.	8A-X'/L	.	16ff'\LL	.	16aa'\LL	.
.	.	.	.	16dd-X'\	<	16bb-X'\	<
.	.	8G-X'/J	.	16ff'\	.	16ccc'\	.
.	.	.	.	16dd-'\JJ	.	16bb-'\JJ	.
4r	.	4F^/	.	16ff'\LL	.	16aa'\LL	.
.	.	.	.	16dd-'\	[	16bb-'\	[
.	.	.	.	16ff'\	.	16ddd-X'\	.
.	.	.	.	16dd-'\JJ	.	16ccc'\JJ	.
!!LO:LB:g=original
=29	=29	=29	=29	=29	=29	=29	=29
!LO:TX:a:i:t=arco	!	!	!	!	!	!	!
8E'\L	mf	2r	.	16ggn'\LL	mf	16bb-X'\LL	mf
.	.	.	.	16cc'\	.	16ccc'\	.
8D'\J	.	.	.	16ff'\	.	16bb-'\	.
.	.	.	.	16cc'\JJ	.	16ccc'\JJ	.
4C^/	.	.	.	16ee'\LL	.	16bb-'\LL	.
.	.	.	.	16cc'\	.	16ccc'\	.
.	.	.	.	16ee'\	.	16bb-'\	.
.	.	.	.	16cc'\JJ	.	16ccc'\JJ	.
=30	=30	=30	=30	=30	=30	=30	=30
(16D\LL	.	2r	.	16ff'\LL	.	16bb-X'\LL	.
16E\J	.	.	.	16cc'\	.	16ccc'\	.
8F\J)	.	.	.	16aa'\	.	16bb-'\	.
.	.	.	.	16cc'\JJ	.	16ccc'\JJ	.
4E\	.	.	.	16gg'\LL	.	16bb-'\LL	.
.	.	.	.	16cc'\	.	16ccc'\	.
.	.	.	.	16gg'\	.	16bb-'\	.
.	.	.	.	16cc'\JJ	.	16ccc'\JJ	.
=31	=31	=31	=31	=31	=31	=31	=31
8E'\L	.	8G'/L	mf	16ee'\LL	.	16gg'\LL	.
.	.	.	.	16cc'\	.	16ccc'\	.
8D'\J	.	8F'/J	.	16ff'\	.	16aa'\	.
.	.	.	.	16cc'\JJ	.	16ccc'\JJ	.
4C^/	.	4E^/	.	16gg'\LL	.	16bb-X'\LL	.
.	.	.	.	16cc'\	.	16ccc'\	.
.	.	.	.	16gg'\	.	16bb-'\	.
.	.	.	.	16cc'\JJ	.	16ccc'\JJ	.
=32	=32	=32	=32	=32	=32	=32	=32
(16D\LL	<	(16F/LL	.	16ff'\LL	.	16aa'\LL	.
16E\J	.	16G/J	<	16cc'\	.	16ccc'\	.
8F\J)	.	8A/J)	.	16ff'\	.	16aa'\	.
.	.	.	.	16cc'\JJ	.	16ccc'\JJ	.
8E'\L	.	8G'/L	.	16gg'\LL	.	16bb-X'\LL	.
.	.	.	.	16cc'\	.	16ccc'\	.
8D'\J	[	8A'/J	[	16ff'\	.	16bb-'\	.
.	.	.	.	16cc'\JJ	.	16ccc'\JJ	.
!!LO:REH:t=E
=33	=33	=33	=33	=33	=33	=33	=33
!LO:TX:b:i:t=E:color=blue:mod=	!	!	!	!	!	!	!
4C^/	.	4B-X^/	.	16ee'^\LL	<	16gg'^\LL	<
!	!	!	!	!	!	!LO:TX:a:i:t=E:color=blue:mod=	!
.	.	.	.	16cc'\	.	16ccc'\	.
.	.	.	.	16ee'\	.	16bb-X'\	.
.	.	.	.	16cc'\JJ	.	16ccc'\JJ	.
4r	.	4r	.	16ee'\LL	.	16bb-'\LL	.
.	.	.	.	16cc'\	.	16ccc'\	.
.	.	.	.	16ee'\	[	16bb-'\	[
.	.	.	.	16cc'\JJ	.	16ccc'\JJ	.
!!LO:PB:g=original
=34	=34	=34	=34	=34	=34	=34	=34
2r	.	2r	.	16ee'\LL	>	16bb-X'\LL	>
.	.	.	.	16cc'\	.	16ccc'\	.
.	.	.	.	16ff'\	.	16bb-'\	.
.	.	.	.	16cc'\JJ	.	16ccc'\JJ	.
.	.	.	.	16gg'\LL	.	16bb-'\LL	.
.	.	.	.	16cc'\	.	16ccc'\	.
.	.	.	.	16ee'\	.	16bb-'\	.
.	.	.	.	16cc'\JJ	]	16ccc'\JJ	]
=35	=35	=35	=35	=35	=35	=35	=35
!	!	!LO:MO:mod=!LO&colon;TX&colon;a&colon;i&colon;t=pizz.	!	!	!	!	!
!	!	!LO:TX:a:i:t=piʒʒ.	!	!	!	!	!
2r	.	4f#X^\	f	2r	.	2r	.
.	.	4d#X^\	.	.	.	.	.
=36	=36	=36	=36	=36	=36	=36	=36
!	!	!	!	!	!LO:DY:rj	!	!LO:DY:rj
2r	.	2r	.	16gg'\LL	p	16bb-X'\LL	p
.	.	.	.	16cc'\	.	16ccc'\	.
.	.	.	.	16ff'\	.	16aa'\	.
.	.	.	.	16cc'\JJ	.	16ccc'\JJ	.
.	.	.	.	16ee'\LL	.	16gg'\LL	.
.	.	.	.	16cc'\	.	16ccc'\	.
.	.	.	.	16gg'\	.	16bb-'\	.
.	.	.	.	16cc'\JJ	.	16ccc'\JJ	.
=37	=37	=37	=37	=37	=37	=37	=37
2r	.	4f#X\	f	2r	.	2r	.
.	.	4d#X\	.	.	.	.	.
=38	=38	=38	=38	=38	=38	=38	=38
4g\	p	2r	.	16ee'\LL	p	16bb-X'\LL	p
!LO:MO:mod=!LO&colon;TX&colon;a&colon;i&colon;t=pizz.	!	!	!	!	!	!	!
!LO:TX:b:i:t=piʒʒ.	!	!	!	!	!	!	!
.	.	.	.	16cc'\	.	16ccc'\	.
.	.	.	.	16ff'\	.	16bb-'\	.
.	.	.	.	16cc'\JJ	.	16ccc'\JJ	.
4e\	.	.	.	16gg'\LL	.	16bb-'\LL	.
.	.	.	.	16cc'\	.	16ccc'\	.
.	.	.	.	16ee'\	.	16bb-'\	.
.	.	.	.	16cc'\JJ	.	16ccc'\JJ	.
=39	=39	=39	=39	=39	=39	=39	=39
2r	.	4f#X\	f	2r	.	2r	.
.	.	4d#X\	.	.	.	.	.
=40	=40	=40	=40	=40	=40	=40	=40
!	!	!	!	!LO:MO:mod=!LO&colon;TX&colon;a&colon;i&colon;t=pizz.	!	!	!
!	!	!	!	!LO:TX:a:i:t=piʒʒ.	!	!	!
4r	.	2r	.	8g/L	p	4r	.
.	.	.	.	8e/J	.	.	.
!LO:TX:a:i:t=arco	!LO:DY:rj	!	!	!	!	!	!LO:DY:a
16E'/LL	p	.	.	4r	.	16G'/LL	p
16C'/	.	.	.	.	.	16c'/	.
16E'/	.	.	.	.	.	16G'/	.
16C'/JJ	.	.	.	.	.	16c'/JJ	.
!!LO:LB:g=original
=41	=41	=41	=41	=41	=41	=41	=41
2r	.	4f#X\	f	2r	.	2r	.
.	.	4d#X\	.	.	.	.	.
=42	=42	=42	=42	=42	=42	=42	=42
!	!	!	!	!	!LO:DY:rj	!	!
4r	.	2r	.	8g/L	p	4r	.
.	p	.	.	8e/J	.	.	.
!	!	!	!	!	!	!	!LO:DY:a
16G'\LL	.	.	.	4r	.	16B-X'/LL	p
16F'\	.	.	.	.	.	16A'/	.
16E'\	.	.	.	.	.	16G'/	.
16C'\JJ	.	.	.	.	.	16c'/JJ	.
=43	=43	=43	=43	=43	=43	=43	=43
!	!	!	!LO:DY:rj	!	!	!	!
2r	.	4f#X\	f	2r	.	2r	.
.	.	4d#X\	.	.	.	.	.
!!LO:REH:t=F
=44	=44	=44	=44	=44	=44	=44	=44
!	!	!	!	!	!	!LO:TX:a:i:t=F:color=blue:mod=	!
!	!	!	!	!	!	!LO:MO:mod=!LO&colon;TX&colon;a&colon;i&colon;t=pizz.	!
!LO:TX:b:i:t=F:color=blue:mod=	!	!	!	!	!	!LO:TX:a:i:t=piʒʒ	!
2r	.	4r	.	2r	.	8g/L	p
.	.	.	.	.	.	8e/J	.
!	!	!	!LO:DY:rj	!	!	!	!
.	.	8f#X\L	f	.	.	4r	.
.	.	8d#X\J	.	.	.	.	.
=45	=45	=45	=45	=45	=45	=45	=45
2r	.	4r	.	2r	.	8g/L	p
.	.	.	.	.	.	8e/J	.
!	!	!	!LO:DY:rj	!	!	!	!
.	.	8f#X\L	f	.	.	4r	.
.	.	8d#X\J	.	.	.	.	.
=46	=46	=46	=46	=46	=46	=46	=46
2r	.	4r	.	2r	.	8g/L	p
.	.	.	.	.	.	8d#X/J	.
!	!	!	!LO:DY:rj	!	!	!	!
.	.	8f#X\L	f	.	.	4r	.
.	.	8d#X\J	.	.	.	.	.
=47	=47	=47	=47	=47	=47	=47	=47
2r	.	2r	.	4r	.	8f#X/L	f
.	.	.	.	.	.	8d#X/J	.
!	!	!	!	!	!LO:DY:rj	!	!
.	.	.	.	8c/L	f	4r	.
.	.	.	.	8A/J	.	.	.
=48	=48	=48	=48	=48	=48	=48	=48
4r	.	8F#X/L	f	2r	.	2r	.
.	.	8D#X/J	.	.	.	.	.
!LO:MO:mod=!LO&colon;TX&colon;a&colon;i&colon;t=pizz.	!	!	!	!	!	!	!
!LO:TX:a:i:t=piʒʒ	!	!	!	!	!	!	!
8C/L	f	4r	.	.	.	.	.
8BB/J	.	.	.	.	.	.	.
=49	=49	=49	=49	=49	=49	=49	=49
8C/L	.	2r	.	2r	.	2r	.
8BB/	.	.	.	.	.	.	.
8C/	.	.	.	.	.	.	.
8BB-X/J	.	.	.	.	.	.	.
!!LO:LB:g=original
=50	=50	=50	=50	=50	=50	=50	=50
8C/L	>	2r	.	2r	.	2r	.
8AA/	.	.	.	.	.	.	.
8C/	.	.	.	.	.	.	.
8GG#X/J	]	.	.	.	.	.	.
=51	=51	=51	=51	=51	=51	=51	=51
4C/	p	2r	.	2r	.	2r	.
4GG#X/	.	.	.	.	.	.	.
=52	=52	=52	=52	=52	=52	=52	=52
4C/	.	2r	.	2r	.	2r	.
4GG#X/	.	.	.	.	.	.	.
=53	=53	=53	=53	=53	=53	=53	=53
4C/	.	2r	.	2r	.	2r	.
4GG#X/	.	.	.	.	.	.	.
!!LO:REH:t=G
=54	=54	=54	=54	=54	=54	=54	=54
!LO:TX:b:i:t=G:color=blue:mod=	!	!	!	!	!	!LO:TX:a:i:t=G:color=blue:mod=	!
4C/	.	4r	.	4r	.	4r	.
!	!	!LO:TX:a:i:t=arco	!LO:DY:rj	!LO:TX:a:i:t=arco	!LO:DY:rj	!LO:TX:a:i:t=arco	!LO:DY:rj
4GG#X/	.	8E'/L	p	8c'/L	p	8e'/L	p
.	.	8E'/J	.	8B'/J	.	8d'/J	.
=55	=55	=55	=55	=55	=55	=55	=55
4C/	.	4E/	.	4A/	.	4c/	.
4GG#X/	.	4E/	.	(16B/LL	.	(16d/LL	.
.	.	.	.	16c/J	.	16e/J	.
.	.	.	.	8d/J)	.	8f/J)	.
=56	=56	=56	=56	=56	=56	=56	=56
4C/	.	[4E/	.	[4c/	.	[4e/	.
4GG#X/	.	8E/]	.	8c/]	.	8e/]	.
.	.	8r	.	8r	.	8r	.
=57	=57	=57	=57	=57	=57	=57	=57
4C/	.	4r	.	4r	.	4r	.
4GG#X/	.	8E'/L	.	8c'/L	.	8e'/L	.
.	.	8E'/J	.	8B'/J	.	8d'/J	.
=58	=58	=58	=58	=58	=58	=58	=58
4C/	.	4E/	.	4A/	.	4c/	.
4GG#X/	.	4E/	.	(16B/LL	.	(16d/LL	.
.	.	.	.	16c/J	.	16e/J	.
.	.	.	.	8d/J)	.	8f/J)	.
=59	=59	=59	=59	=59	=59	=59	=59
4C/	.	4E/	.	4c/	.	4e/	.
4GG#X/	.	8E'/L	.	8c'/L	.	8e'/L	.
.	.	8E'/J	.	8c'/J	.	8e'/J	.
=60	=60	=60	=60	=60	=60	=60	=60
4AA/	<	4A/	.	4c/	.	4e/	<
4EE/	.	4G/	<	(16c/LL	<	(16e/LL	.
.	.	.	.	16d/J	.	16f/J	.
.	[	.	[	8e/J)	[[	8g/J)	[[
!!LO:LB:g=original
=61	=61	=61	=61	=61	=61	=61	=61
4DD^/	.	4F^/	.	4f^/	.	4a^/	.
8EE/L	>	8G'/L	>	(16f/LL	>	(16a/LL	>
.	.	.	.	16e/J	.	16g/J	.
8FF/J	]	8A'/J	]	8d/J)	]	8f/J)	]
=62	=62	=62	=62	=62	=62	=62	=62
4GG/	.	4F/	.	4A/	.	4d/	.
4GG/	.	8E'/L	.	8B'/L	.	8e'/L	.
.	.	8E'/J	.	8B'/J	.	8e'/J	.
=63	=63	=63	=63	=63	=63	=63	=63
4AA/	.	4E/	.	4A/	.	4c/	.
4EE/	.	4r	.	4r	.	4r	.
=64	=64	=64	=64	=64	=64	=64	=64
4AA/	>	4r	.	4r	.	4r	.
!	!	!	!LO:DY:rj	!	!LO:DY:rj	!	!LO:DY:rj
4GG^/	.	8E'/L	p	8B'/L	p	8e'/L	p
.	.	8E'/J	.	8B'/J	.	8e'/J	.
=65	=65	=65	=65	=65	=65	=65	=65
4AA/	.	4E/	.	4A/	.	4c/	.
4EE/	]	4r	.	4r	.	4r	.
=66	=66	=66	=66	=66	=66	=66	=66
4AA/	.	4r	pp	4r	pp	4r	pp
4GG/	pp	8E'/L	.	8B'/L	.	8e'/L	.
.	.	8E'/J	.	8B'/J	.	8e'/J	.
=67	=67	=67	=67	=67	=67	=67	=67
4AA/	.	4E/	.	4A/	.	4c/	.
4EE/	.	4r	.	4r	.	4r	.
=68	=68	=68	=68	=68	=68	=68	=68
8AA/	.	4r	.	4r	.	4r	.
8r	.	.	.	.	.	.	.
!LO:TX:a:i:t=arco	!	!	!LO:DY:rj	!	!LO:DY:rj	!	!LO:DY:rj
(>4EE/	pp	(>4D/	pp	(>4G/	pp	(4B/	pp
=69||	=69||	=69||	=69||	=69||	=69||	=69||	=69||
*k[b-]	*	*k[b-]	*	*k[b-]	*	*k[b-]	*
*F:	*	*F:	*	*F:	*	*F:	*
!!!OMD:
!!!OMD-mod: Doppio movimento
!LO:TX:a:i:t=Doppio movimento:mod=	!	!LO:TX:a:i:t=Doppio movimento:mod=	!	!LO:TX:a:i:t=Doppio movimento:mod=	!	!LO:TX:a:i:t=Doppio movimento:mod=	!
[2FF/	.	[2C/	.	[2A/	.	4A/)	.
.	.	.	.	.	.	4r	.
=70	=70	=70	=70	=70	=70	=70	=70
2FF/_	.	2C/_	.	2A/_	.	2r	.
=71	=71	=71	=71	=71	=71	=71	=71
2FF/_	.	2C/_	.	2A/_	.	2r	.
=72	=72	=72	=72	=72	=72	=72	=72
2FF/])	.	2C/])	.	2A/])	.	2r	.
!!LO:PB:g=original
=73	=73	=73	=73	=73	=73	=73	=73
!	!	!	!	!	!	!LO:TX:a:i:t=espressivo	!LO:DY:rj
[2FF/	.	[2C/	.	[2A/	.	(4c/	p
.	.	.	.	.	.	4d/	.
=74	=74	=74	=74	=74	=74	=74	=74
2FF/_	.	2C/_	.	2A/_	.	4f/	.
.	.	.	.	.	.	8e/L	.
.	.	.	.	.	.	8g/J	.
=75	=75	=75	=75	=75	=75	=75	=75
2FF/_	.	2C/_	.	2A/_	.	4f/	.
.	.	.	.	.	.	4d/)	.
=76	=76	=76	=76	=76	=76	=76	=76
2FF/_	.	2C/_	.	2A/_	.	(4e/	.
.	.	.	.	.	.	4f/	.
=77	=77	=77	=77	=77	=77	=77	=77
2FF/_	.	2C/_	.	2A/_	.	4a/	.
.	.	.	.	.	.	8g/L	.
.	.	.	.	.	.	8b-/J	.
=78	=78	=78	=78	=78	=78	=78	=78
2FF/_	.	2C/_	.	2A/_	.	4a/)	<
.	.	.	.	.	.	(4cc\	.
=79	=79	=79	=79	=79	=79	=79	=79
2FF/_	.	2C/_	.	2A/_	.	4aa\	.
.	.	.	.	.	.	4gg\	[
=80	=80	=80	=80	=80	=80	=80	=80
2FF/_	.	2C/_	.	2A/_	.	4cc\	.
.	.	.	.	.	.	8dd\L	>
.	.	.	.	.	.	8ff\J	.
=81	=81	=81	=81	=81	=81	=81	=81
2FF/_	.	2C/]	.	2A/]	.	4ee\	.
.	.	.	.	.	.	4cc\)	]]
=82	=82	=82	=82	=82	=82	=82	=82
!	!	!	!	!	!LO:HP:a	!	!
2FF/_	.	[2D-X/	.	(8B-/L	<	[2b-/	.
.	.	.	.	8c/	.	.	.
.	.	.	.	8d-X/	.	.	.
.	.	.	.	8g/J	[	.	.
=83	=83	=83	=83	=83	=83	=83	=83
!	!	!	!	!	!LO:HP:a	!	!
2FF/_	.	2D-/]	.	8f/L	>	2b-/]	.
.	.	.	.	8g/	.	.	.
.	.	.	.	8f/	.	.	.
.	.	.	.	8B-/J)	]	.	.
=84	=84	=84	=84	=84	=84	=84	=84
2FF/_	.	[2E/	.	([2c/	.	(8b-/L	.
.	.	.	.	.	.	8a/	.
.	.	.	.	.	.	8g/	.
.	.	.	.	.	.	8dd-X/J	.
=85	=85	=85	=85	=85	=85	=85	=85
2FF/]	.	2E/]	.	4.c/]	.	8cc/L	.
.	.	.	.	.	.	8b-/	.
.	.	.	.	.	.	8a/	.
.	.	.	.	8B-/	.	8g/J)	.
!!LO:LB:g=original
=86	=86	=86	=86	=86	=86	=86	=86
(4FF/	.	(4F/	.	4A/)	.	(8f/L	.
.	.	.	.	.	.	8d/J	.
4AA/	.	4E/	.	(4A/	<	4c/	<
=87	=87	=87	=87	=87	=87	=87	=87
4GG/	<	4G/)	<	4B-/	.	4d/	.
4C/	.	(4G/	.	4c/	.	4e/	.
=88	=88	=88	=88	=88	=88	=88	=88
4BBn/	.	4A/	[	4d/	.	4f/	[
4BB-X/)	[	4c/)	.	4e/)	[	4g/)	.
=89	=89	=89	=89	=89	=89	=89	=89
(4AA/	.	(<4c/	.	(4e/	.	(8a/L	.
.	.	.	.	.	.	8g/J	.
4D/	.	4A/	.	4d/	.	4f/	.
=90	=90	=90	=90	=90	=90	=90	=90
4C#X/	.	4Bn/	.	4e/	.	4g/	.
4Cn/)	.	4d\)	.	4f#X/)	.	4a/)	.
=91	=91	=91	=91	=91	=91	=91	=91
(2BB-/	.	(<[2d\	.	(4fn/	.	(8dd\L	.
.	.	.	.	.	.	8cc\J	.
.	>	.	.	4f#X/	.	[4b-\	>
=92	=92	=92	=92	=92	=92	=92	=92
[2GG/	.	4d\]	>	8a/L	>	4b-\]	.
.	.	.	.	8g/J	.	.	.
.	.	[4B-/	.	[4d/	.	8a/L	.
.	.	.	.	.	.	8g/J	.
=93	=93	=93	=93	=93	=93	=93	=93
4GG/])	.	8B-/L]	.	8d/L]	]	4f/	.
.	]	8A/J	.	8c/J	.	.	.
(4CC/	p	8G/L	.	4B-/)	.	8e/L	.
.	.	8E/J)	]	.	.	8d/J)	]
!!LO:REH:t=H
=94	=94	=94	=94	=94	=94	=94	=94
!LO:TX:b:i:t=H:color=blue:mod=	!	!	!LO:DY:rj	!	!LO:DY:rj	!LO:TX:a:i:t=H:color=blue:mod=	!LO:DY:rj
[2FF/	.	(8F/L	p	(4A/	p	(4c/	p
.	.	8D/J	.	.	.	.	.
.	.	4C/	.	8B-/L	.	4d/	.
.	.	.	.	8A/J	.	.	.
=95	=95	=95	=95	=95	=95	=95	=95
2FF/])	.	8C/L	.	4G/	.	4f/	.
.	.	8D/J	.	.	.	.	.
.	.	4C/)	.	4B-/	.	8e/L	.
.	.	.	.	.	.	8g/J	.
=96	=96	=96	=96	=96	=96	=96	=96
(8FF/L	.	([2C/	.	8A/L	.	4f/	.
8EE/J	.	.	.	8G/J	.	.	.
4FF/)	.	.	.	4A/)	.	4d/)	.
=97	=97	=97	=97	=97	=97	=97	=97
[2FF/	.	8C/L]	.	(4G/	.	(4e/	.
.	.	8D/J	.	.	.	.	.
.	.	4C/)	.	8A/L	.	4f/	.
.	.	.	.	8B-/J	.	.	.
!!LO:LB:g=original
=98	=98	=98	=98	=98	=98	=98	=98
2FF/]	.	(8D/L	.	4A/	.	4a/	.
.	.	8D#X/J	.	.	.	.	.
.	.	4E/	.	8B-/L	.	8g/L	.
.	.	.	.	8G/J)	.	8b-/J	.
=99	=99	=99	=99	=99	=99	=99	=99
(8FF/L	.	4.C/	.	(8A/L	.	4a/)	.
8EE/J	.	.	.	8G/	.	.	<
[4FF/	.	.	.	8A/	.	(4cc\	.
.	.	8Dn/)	.	8B-/J	.	.	.
=100	=100	=100	=100	=100	=100	=100	=100
2FF/_	.	(8E/L	.	8c/L	.	4aa\	.
.	.	8F/	.	8d/	.	.	[
.	.	8E/	.	8e/	.	4gg\	.
.	.	8D/J	.	8f/J)	.	.	.
=101	=101	=101	=101	=101	=101	=101	=101
2FF/_	.	4G/	.	(4e/	.	4cc\	.
.	.	4F/)	.	4d/	.	8dd\L	>
.	.	.	.	.	.	8ff\J	.
=102	=102	=102	=102	=102	=102	=102	=102
2FF/])	.	(8B-/L	.	4c/	.	4ee\	.
.	.	8G/	.	.	.	.	.
.	.	8E/	.	4A/)	.	4cc\)	]
.	.	8F/J)	.	.	.	.	.
=103	=103	=103	=103	=103	=103	=103	=103
!	!	!	!	!	!LO:HP:a	!	!
(2DD/	.	(2F/	.	(8A/L	<	[2bn/	.
.	.	.	.	8Bn/	.	.	.
.	.	.	.	8f/	[	.	.
.	.	.	.	8a/J	.	.	.
=104	=104	=104	=104	=104	=104	=104	=104
!	!	!	!	!	!LO:HP:a	!	!
2EE/	.	4E/	.	8g#X/L	>	2b/]	.
.	.	.	.	8f/	.	.	.
.	.	4G#X/)	.	8e/	.	.	.
.	.	.	.	8d/J)	]	.	.
!!LO:REH:t=J
=105	=105	=105	=105	=105	=105	=105	=105
!LO:TX:b:i:t=J:color=blue:mod=	!	!	!	!	!	!LO:TX:a:i:t=J:color=blue:mod=	!
!	!	!	!	!	!	!	!LO:MO:null:mod=!LO&colon;DY&colon;ed=brack
!	!	!	!	!	!	!	!
!	!	!	!	!	!	!	!LO:MO:null:mod=p <
[2AA/	.	(8E/L	.	(2c/	.	(4a/	<
.	.	8F/J	.	.	.	.	.
.	.	4E/	.	.	.	4bn/	[[
=106	=106	=106	=106	=106	=106	=106	=106
2AA/_	.	8F/L	.	4Bn/	.	4dd\	>
.	.	8G/J	.	.	.	.	.
.	.	8A/L	.	4f/	.	8cc\L	.
.	.	8d/J	.	.	.	8bn\J	]]
=107	=107	=107	=107	=107	=107	=107	=107
4AA/])	.	4c/)	.	4e/)	.	4a/)	.
4r	.	4r	.	4r	.	([4ee\	.
=108	=108	=108	=108	=108	=108	=108	=108
!	!	!	!	!	!LO:DY:rj	!	!
2r	.	2r	.	(4d/	p	8ee\L]	.
.	.	.	.	.	.	8ff\	.
.	.	.	.	4e/	.	8dd\	.
.	.	.	.	.	.	8cc\J	.
!!LO:LB:g=original
=109	=109	=109	=109	=109	=109	=109	=109
2r	.	2r	.	4g/	.	[>2bn/	.
.	.	.	.	8f/L	.	.	.
.	.	.	.	8e/J	.	.	.
=110	=110	=110	=110	=110	=110	=110	=110
2r	.	2r	.	4d/)	.	8b\L])	.
.	.	.	.	.	.	(8bn\	.
.	.	.	.	([4f/	.	8cc\	.
.	.	.	.	.	.	8dd\J	.
=111	=111	=111	=111	=111	=111	=111	=111
!	!	!	!LO:DY:rj	!	!	!	!
2r	.	(4C/	p	8f/L]	.	[2g/	.
.	.	.	.	8e/	.	.	.
.	.	4D/	.	8A/	.	.	.
.	.	.	.	8Bn/J)	.	.	.
=112	=112	=112	=112	=112	=112	=112	=112
2r	.	4F/	.	(4.c/	.	8g/L])	.
.	.	.	.	.	.	(8g#X/	<
.	.	8E/L	.	.	.	8a/	.
.	.	8D/J	.	8d/	.	8bn/J	.
=113	=113	=113	=113	=113	=113	=113	=113
2r	.	4C/)	.	4e/)	.	8cc\L	.
.	.	.	.	.	.	8ee\	.
.	.	4r	.	4r	.	8ff\)	.
.	.	.	.	.	.	8gg\J	[
!!LO:REH:t=K
=114	=114	=114	=114	=114	=114	=114	=114
!LO:TX:b:i:t=K:color=blue:mod=	!	!	!	!	!	!LO:TX:a:i:t=K:color=blue:mod=	!
2r	.	2r	.	8r	.	(8aa\L	.
!	!	!	!	!LO:TX:b:i:t=con delicatezza	!LO:DY:rj	!	!
.	.	.	.	(8ee\L	p	8ccc\	.
.	.	.	.	8ff\	.	8aa\	>
.	.	.	.	8cc#X\J	.	8ee\J	.
=115	=115	=115	=115	=115	=115	=115	=115
2r	.	8r	.	8dd\L	.	8ff\L	.
!	!	!LO:TX:b:i:t=con delicatezza	!LO:DY:rj	!	!	!	!
.	.	(8f#X\L	p	8ccn\	.	8aa-X\	.
.	.	8g\	.	8bn\	.	8gg\	]
!	!	!	!	!	!	!LO:TX:b:i:t=con delicatezza	!
.	.	8d\J)	.	8a-X\J)	.	8ff\J)	.
=116	=116	=116	=116	=116	=116	=116	=116
8r	.	(8e\L	.	(8g/L	.	(8ee\L	.
!LO:MO:mod=!LO&colon;TX&colon;a&colon;i&colon;t=con delicatezza	!	!	!	!	!	!	!
!LO:TX:b:i:t=con delicateʒʒa	!LO:DY:rj	!	!	!	!	!	!
(8G\L	p	8Bn\	.	8f/	.	8dd\	.
8A\	.	8c\	.	8e/	.	8cc\	.
8E\J	.	8e\J	.	8g/J	.	8bn\J	.
=117	=117	=117	=117	=117	=117	=117	=117
8F\L	.	8c\L	.	8f/L	.	8a\L	.
8E\	.	8e\	.	8g/	.	8bn\	.
8D\	.	8f\)	.	8a/	.	8dd\	.
8E\J)	.	8e\J	.	8g/J)	.	8b\J)	.
!!LO:PB:g=original
=118	=118	=118	=118	=118	=118	=118	=118
!LO:MO:mod=!null:null	!	!	!	!	!	!	!
!LO:S:color=blue	!	!	!	!	!	!	!
(8F\L	.	(<8c/L	.	(8f/L	.	(8a/L	.
8G\	.	8Bn/	.	8d/	.	8g/	.
8A\	.	8A/	.	8c/	.	8e/	.
8G\J	.	8B/J	.	8d/J	.	8g/J	.
=119	=119	=119	=119	=119	=119	=119	=119
8D/L	.	8d\L	.	8f#X/L	.	8a/L	.
8BBn/	.	8d\	.	8fn/	.	8bn/	.
8AA/)	.	8e\	.	8a/	.	8cc/	.
8GG/J	.	8g\J)	.	8bn/J)	.	8dd/J	.
=120	=120	=120	=120	=120	=120	=120	=120
4CC/	.	(4g\	.	4cc\	.	4ee\)	.
4r	.	8e\L	.	4r	.	4r	.
.	.	8d\J)	.	.	.	.	.
=121	=121	=121	=121	=121	=121	=121	=121
!	!	!	!	!	!LO:DY:rj	!	!
4r	.	8c\	.	(8c/L	p	2r	.
.	.	8r	.	8Bn/J	.	.	.
!	!LO:DY:rj	!	!	!	!	!	!
(8F\L	p	4r	.	4A/	.	.	.
8E\J	.	.	.	.	.	.	.
!!LO:REH:t=L
=122	=122	=122	=122	=122	=122	=122	=122
!LO:TX:b:i:t=L:color=blue:mod=	!	!	!	!	!	!LO:TX:a:i:t=L:color=blue:mod=	!
4C/)	.	2r	.	4G/)	.	4r	.
4CC/	.	.	.	4r	.	(4cc\	mf <
=123	=123	=123	=123	=123	=123	=123	=123
2r	.	2r	.	2r	.	4bb-X\)	[
.	.	.	.	.	.	(8aa\L	.
.	.	.	.	.	.	8bb-\J	.
=124	=124	=124	=124	=124	=124	=124	=124
2r	.	2r	.	4r	.	8dd\L	.
.	.	.	.	.	.	8ff\J	.
!	!	!	!	!	!LO:DY:rj	!	!
.	.	.	.	(4c/	mf <	[4aa\	.
=125	=125	=125	=125	=125	=125	=125	=125
2r	.	2r	.	4b-/)	[	8aa\L])	.
.	.	.	.	.	.	(8gg\	.
.	.	.	.	(8a/L	.	8ff\	.
.	.	.	.	8b-/J	.	8gg\J	.
=126	=126	=126	=126	=126	=126	=126	=126
2r	.	4r	.	8d/L	.	8b-\L	.
.	.	.	.	8f/J	.	8dd\J	.
!	!	!	!LO:DY:rj	!	!	!	!
!	!	!	!LO:HP:a	!	!	!	!
.	.	(4C/	mf <	[4a/	.	4cc\)	.
=127	=127	=127	=127	=127	=127	=127	=127
2r	.	4B-/)	[	8a/L])	.	(8cc#X\	.
.	.	.	.	(8g/	.	4dd\	.
.	.	8A/L	.	8f/	.	.	.
.	.	8B-/J	.	8g/J)	.	8ee\)	.
!!LO:LB:g=original
=128	=128	=128	=128	=128	=128	=128	=128
4r	.	(8D/L	.	(8B-/L	.	(8ff/L	.
.	.	8F/J	.	8d/J	.	8b-/	.
!	!LO:DY:rj	!	!	!	!	!	!
(4CC/	mf <	[4A/	.	4c/)	.	8a/	.
.	.	.	.	.	.	8g/J)	.
=129	=129	=129	=129	=129	=129	=129	=129
4BB-/)	[	8A/L])	.	(8c#X/	.	(4f/	.
.	.	(8G/	.	4d/	.	.	.
(8AA/L	.	8F/	.	.	.	4cc\	.
8BB-/J	.	8G/J	.	8e/)	.	.	.
=130	=130	=130	=130	=130	=130	=130	=130
8DD/L	.	4.F/	.	(8f/L	.	4dd\	.
8FF/J	.	.	.	8B-/	.	.	.
[4AA/	.	.	.	8A/	.	[4cc\)	.
.	.	8E/)	.	8G/J)	.	.	.
=131	=131	=131	=131	=131	=131	=131	=131
8AA/L])	.	(4F/	.	[4c/	.	8cc\]	.
(8GG/	.	.	.	.	.	8r	.
8FF/	.	8A/)	.	8c/]	.	(4cc\	f <
8DD-X/J	.	8r	.	8r	.	.	.
=132	=132	=132	=132	=132	=132	=132	=132
4CC/)	.	2r	.	4r	.	4ddd-X\)	[
4r	.	.	.	(4e/	f <	(8ccc\L	.
.	.	.	.	.	.	8ddd-\J	.
=133	=133	=133	=133	=133	=133	=133	=133
2r	.	4r	.	4dd-X\)	[	8ee\L	.
.	.	.	.	.	.	8gg\J	.
!	!	!	!LO:DY:rj	!	!	!	!
.	.	(4E/	f <	(8cc\L	.	[4bb-\	.
.	.	.	.	8dd-\J	.	.	.
=134	=134	=134	=134	=134	=134	=134	=134
4r	.	4d-X\)	[	8e/L	.	8bb-\L])	.
.	.	.	.	8g/	.	(8ee\	>
!	!LO:DY:rj:color=blue	!	!	!	!	!	!
(4EE/	f	(8c\L	.	8a-X/	.	8ff\	.
.	.	8d-\J	.	8b-/J)	.	8gg\J	.
=135	=135	=135	=135	=135	=135	=135	=135
!	!LO:MO:mod=!null:null	!	!	!	!	!	!
!	!LO:HP:color=blue	!	!	!	!	!	!
[2FF/)	>	8c/L	>	(8a-X/L	>	8ff\L	.
.	.	8A-X/	.	8f/	.	8dd-X\	.
.	.	8F/	.	8d-X/	]	8b-\	.
.	]]	8D-X/J)	]	8B-/J	.	8g-X\J)	]
=136	=136	=136	=136	=136	=136	=136	=136
!	!LO:MO:mod=!null:null	!	!	!	!	!	!
!	!LO:DY:color=blue	!	!LO:DY:rj	!	!LO:DY:rj	!	!LO:DY:rj
2FF/_	p	(8C/L	p	[2A-X/)	p	(2f/	p
.	.	8F/	.	.	.	.	.
.	.	8E-X/	.	.	.	.	.
.	.	8D-X/J	.	.	.	.	.
!!LO:LB:g=original
=137	=137	=137	=137	=137	=137	=137	=137
2FF/]	>	8C/L	>	2A-/]	.	2a-X/)	.
.	.	8D-X/	.	.	>	.	.
.	.	8E-X/	.	.	]	.	.
.	]	8En/J)	]	.	pp	.	.
!!LO:REH:t=M
=138	=138	=138	=138	=138	=138	=138	=138
!LO:TX:b:i:t=M:color=blue:mod=	!LO:DY:rj	!	!LO:DY:rj	!	!	!LO:TX:a:i:t=M:color=blue:mod=	!
!LO:MO:mod=!null:null	!	!	!	!	!	!	!
!LO:ART:color=blue	!	!	!LO:ART:color=blue	!	!	!	!
[2DD-X^>/	pp	[2F^/	pp	(4A-X/	.	[2a-X/	pp
!	!	!	!	!LO:TX:a:i:t=espressivo	!	!	!
.	.	.	.	4B-/	<	.	.
=139	=139	=139	=139	=139	=139	=139	=139
2DD-/_	.	2F/_	.	4d-X/	[	2a-/_	.
.	.	.	.	8c/L	.	.	.
.	.	.	.	8e-X/J	>	.	.
=140	=140	=140	=140	=140	=140	=140	=140
2DD-/]	.	2F/]	.	4d-X/	]	2a-/]	.
.	.	.	.	4B-/)	.	.	.
=141	=141	=141	=141	=141	=141	=141	=141
!LO:MO:mod=!null:null	!	!LO:MO:mod=!null:null	!	!	!	!	!
!LO:ART:color=blue	!	!LO:ART:color=blue	!	!	!	!	!
[2DD-X^>/	.	[2G-^/	.	[2c/	.	(4a-X/	<
.	.	.	.	.	.	8ff\L	.
.	.	.	.	.	.	8ee-X\J	[[
=142	=142	=142	=142	=142	=142	=142	=142
2DD-/_	.	2G-/_	.	2c/_	.	8b-\L	.
.	.	.	.	.	.	8dd-X\	.
.	.	.	.	.	.	8cc\	>
.	.	.	.	.	.	8a-X\J	.
=143	=143	=143	=143	=143	=143	=143	=143
2DD-/]	.	2G-/]	.	2c/]	.	8g-X/L	.
.	.	.	.	.	.	8e-X/J	.
.	.	.	.	.	.	4b-/)	]]
=144	=144	=144	=144	=144	=144	=144	=144
!LO:MO:mod=!null:null	!	!	!	!	!	!	!
!LO:ART:color=blue	!	!	!	!	!	!	!
[2DD-X^>/	.	(4F/	<	(4d-X/	.	[2a-X/	.
.	.	4G-X/	[[	4e-X/	<	.	.
=145	=145	=145	=145	=145	=145	=145	=145
2DD-/_	.	4B-/	>	4g-X/	[ >	2a-/_	.
.	.	8A-X/L	.	8f/L	.	.	.
.	.	8G-X/J)	]]	8e-X/J)	]	.	.
=146	=146	=146	=146	=146	=146	=146	=146
4DD-/]	.	(4F/	<	(4d-X/	<	4a-/]	.
[4CC/	.	4G-X/	.	4e-X/	[[	[4a-X/	.
=147	=147	=147	=147	=147	=147	=147	=147
4CC/]	.	4B-/	[ >	4g-X/	>	4a-/]	.
[4C/	.	8A-X/L	.	8f/L	.	[4a-X/	.
.	.	8G-X/J)	]	8e-X/J)	]	.	.
!!LO:LB:g=original
=148	=148	=148	=148	=148	=148	=148	=148
4C/]	.	(4F/	.	(4d-X/	.	4a-/]	.
!	!LO:HP:t=crescendo	!	!LO:HP:t=crescendo	!	!LO:HP:t=crescendo	!	!LO:HP:t=crescendo
[4BBn/	<	4G-X/	<	4e-X/	<	[4a-X/	<
=149	=149	=149	=149	=149	=149	=149	=149
4BB/]	.	4B-/	.	4g-X/	.	4a-/]	.
[4BBn/	.	8A-X/L	.	8f/L	.	[4a-X/	.
.	.	8G-X/J)	.	8e/J)	.	.	.
=150	=150	=150	=150	=150	=150	=150	=150
4BB/]	.	(4F/	.	(4d-X/	.	4a-/]	.
[4BBn/	.	4G-X/	.	4e-X/	.	[4a-X/	.
=151	=151	=151	=151	=151	=151	=151	=151
4BB/]	.	4B-/	.	4g-X/	.	4a-/]	.
[4BBn/	.	8A-X/L	.	8f/L	.	[4a-X/	.
.	.	8G-X/J)	.	8e-X/J)	.	.	.
=152	=152	=152	=152	=152	=152	=152	=152
4BB/]	.	4F/	.	(4d-X/	.	4a-/]	.
4BBn/	.	([4F/	.	8e-X/L	.	([4a-X/	.
.	.	.	.	8d-/J	.	.	.
=153	=153	=153	=153	=153	=153	=153	=153
[2C/	.	2F/_	.	[2c/	.	4a-/]	<
.	.	.	.	.	.	4b-/	[[
=154	=154	=154	=154	=154	=154	=154	=154
2C/_	.	4F/]	.	2c/])	.	4cc^\	.
.	.	4F#X/)	.	.	.	8b-/L	.
.	.	.	.	.	.	8an/J)	.
=155	=155	=155	=155	=155	=155	=155	=155
2C/]	>]	([2G/	>	(4B-/	.	(8g/L	>
.	.	.	.	.	.	8a/	.
.	.	.	.	4Bn/	>	8g/	.
.	.	.	.	.	.	8f/J	.
=156	=156	=156	=156	=156	=156	=156	=156
2CC/	.	8G/L]	.	8c/L	.	8e/L	.
.	.	8Fn/	.	8B-X/	]	8d/	]
.	.	8E/	]]	8A/)	.	8c/	.
.	.	8D/J)	.	8G/J	.	8B-/J)	.
.	p	.	p	.	p	.	p
!!LO:REH:t=N
=157	=157	=157	=157	=157	=157	=157	=157
!LO:TX:b:i:t=N:color=blue:mod=	!	!	!	!	!	!LO:TX:a:i:t=N:color=blue:mod=	!
([2FF/	.	(8C/L	.	(8A/L	.	(4c/	.
.	.	8G/	.	8B-/	.	.	.
.	.	8F/	.	8A/	.	4d/	.
.	.	8E/J	.	8G/J	.	.	.
=158	=158	=158	=158	=158	=158	=158	=158
4FF/]	.	8D/L	.	8A/L	.	4f/	.
.	.	8A/	.	8d/J	.	.	.
8GG/L	.	8G/	.	8B-/L	.	8e/L	.
8AA/J	.	8E/J	.	8c#X/J	.	8g/J	.
!!LO:PB:g=original
=159	=159	=159	=159	=159	=159	=159	=159
4AA-X/	.	4F/	.	4cn/	.	4f/	.
4GG/)	.	4G/)	.	4B-/)	.	4d/)	.
=160	=160	=160	=160	=160	=160	=160	=160
(4EE/	.	(4G/	.	(4Bn/	.	(4e/	.
4DD/	.	4F/	.	4B-X/	.	4f/	.
=161	=161	=161	=161	=161	=161	=161	=161
4CC/	<	4E/	.	4A/	<	4a/	<
4GG/	.	8D/L	<	8B-/L	.	8g/L	.
.	[[	8E/J	.	8d/J)	.	8b-/J	.
=162	=162	=162	=162	=162	=162	=162	=162
4DD/	.	4F/	[	(4d/	[	4a/	.
4EE/)	.	4G/)	.	4c/)	.	4cc\)	[[
=163	=163	=163	=163	=163	=163	=163	=163
(4FF#X/	.	4D/	.	(4c/	.	(4aa\	.
4GG/	.	(4D/	.	4B-/	.	4gg\	.
=164	=164	=164	=164	=164	=164	=164	=164
!	!	!	!	!	!LO:HP:a	!	!
4AA/	>	4Fn/)	>	4c/	>	4cc\	>
4GG/	.	(8F/L	.	4Bn/	.	8dd\L	.
.	]]	8A/J	.	.	.	8ff\J	.
=165	=165	=165	=165	=165	=165	=165	=165
4CC/	.	4G/	.	4B-X/	.	4ee\	.
4FF/)	.	4F/)	]	4A/)	]]	4cc\)	]]
=166	=166	=166	=166	=166	=166	=166	=166
[2FF/	.	[2D-X/	.	(8B-/L	.	[2b-/	.
.	.	.	.	8c/	<	.	.
.	.	.	.	8d-X/	.	.	.
.	.	.	.	8g/J	[[	.	.
=167	=167	=167	=167	=167	=167	=167	=167
2FF/]	.	2D-/]	.	8f/L	>	2b-/]	.
.	.	.	.	8g/	.	.	.
.	.	.	.	8f/	]	.	.
.	.	.	.	8B-/J)	.	.	.
=168	=168	=168	=168	=168	=168	=168	=168
[2FF/	.	[2E/	.	[2B-/	.	(8g/L	.
.	.	.	.	.	.	8a/	.
.	.	.	.	.	.	8b-/	.
.	.	.	.	.	.	8dd-X/J	.
!!LO:LB:g=original
=169	=169	=169	=169	=169	=169	=169	=169
2FF/]	.	2E/]	.	2B-/]	.	8cc/L	.
.	.	.	.	.	.	8b-/	.
.	.	.	.	.	.	8a/	.
.	.	.	.	.	.	8g/J)	.
=170	=170	=170	=170	=170	=170	=170	=170
[2FF/	.	[2C/	.	[2A/	.	(8c/L	.
.	.	.	.	.	.	8c#X/	.
.	.	.	.	.	.	8d/	<
.	.	.	.	.	.	8e/J	.
=171	=171	=171	=171	=171	=171	=171	=171
4FF/]	.	4C/]	.	4A/]	.	8f/L	.
.	.	.	.	.	.	8a/	.
4r	.	4r	.	4r	.	8b-/	.
.	.	.	.	.	.	8cc/J)	[
!!LO:REH:t=O
=172	=172	=172	=172	=172	=172	=172	=172
!LO:TX:b:i:t=O:color=blue:mod=	!	!	!	!	!	!LO:TX:a:i:t=O:color=blue:mod=	!
2r	.	2r	.	8r	.	(8dd\L	.
.	.	.	.	(8a/L	p	8ff\	.
.	.	.	.	8b-/	.	8dd\	>
.	.	.	.	8f#X/J	.	8a\J	.
=173	=173	=173	=173	=173	=173	=173	=173
2r	.	8r	.	8g/L	.	8b-\L	.
!	!	!	!LO:DY:rj	!	!	!	!
.	.	(8Bn/L	p	8fn/	.	8dd-X\	.
.	.	8c/	.	8e/	.	8cc\)	.
.	.	8G/J)	.	8d-X/J)	.	8b-\J	]
=174	=174	=174	=174	=174	=174	=174	=174
!!!OMD:
!!!OMD-mod: con delicatezza
!	!	!LO:TX:a:i:t=con delicatezza:mod=	!	!LO:TX:a:i:t=con delicatezza:mod=	!	!LO:TX:a:i:t=con delicateʒʒa:mod=	!
8r	.	(8A/L	.	(8c/L	.	(8a/L	.
!LO:TX:a:i:t=con delicatezza:mod=	!	!	!	!	!	!	!
(8C/L	p	8E/	.	8B-/	.	8g/	.
8D/	.	8F/	.	8A/	.	8f/	.
8AA/J)	.	8A/J)	.	8c/J)	.	8e/J)	.
=175	=175	=175	=175	=175	=175	=175	=175
(8BB-/L	.	(8F/L	.	(8B-/L	.	(8d/L	.
8AA/	.	8A/	.	8c/	.	8e/	.
8GG/	.	8B-/	.	8d/	.	8g/	.
8AA/J	.	8A/J	.	8c/J	.	8e/J	.
=176	=176	=176	=176	=176	=176	=176	=176
8BB-/L	.	8F/L	.	8B-/L	.	8d/L	.
8C/	.	8E/	.	8G/	.	8c/	.
8D/)	.	8F/	.	8A/	.	8A/	.
8C/J	.	8E/J	.	8G/J)	.	8c/J)	.
=177	=177	=177	=177	=177	=177	=177	=177
(8GG/L	.	8G/L)	.	(8Bn/L	.	(8d/L	.
8EE/	.	(8G/	.	8B-X/	.	8e/	.
8DD/	.	8A/	.	8d/	.	8f/	.
8CC/J	.	8c/J	.	8e/J	.	8g/J	.
!!LO:LB:g=original
=178	=178	=178	=178	=178	=178	=178	=178
2FF/)	.	8c/L	.	8f/L	.	8a/L	.
.	.	8B-/	.	8e/	.	8g/	.
.	.	8A/	.	8d/	.	8f/	.
.	.	8E/J)	.	8B-/J)	.	8g/J)	.
=179	=179	=179	=179	=179	=179	=179	=179
[2FF/	.	[2C/	.	(2A/	.	(8f/L	.
.	.	.	.	.	.	8d/	.
.	.	.	.	.	.	8c/	.
.	.	.	.	.	.	8d/J	.
=180	=180	=180	=180	=180	=180	=180	=180
2FF/]	.	2C/]	.	2B-/)	.	8e/L	.
.	.	.	.	.	.	8g/	.
.	.	.	.	.	.	8a/	.
.	.	.	.	.	.	8g/J)	.
=181	=181	=181	=181	=181	=181	=181	=181
[2FF/	.	[2C/	.	(2A/	.	(8f/L	.
.	.	.	.	.	.	8d/	.
.	.	.	.	.	.	8c/	.
.	.	.	.	.	.	8d/J	.
=182	=182	=182	=182	=182	=182	=182	=182
2FF/]	.	2C/]	.	2B-/)	.	8e/L	.
.	.	.	.	.	.	8g/	.
.	.	.	.	.	.	8a/	.
.	.	.	.	.	.	8g/J)	.
=183	=183	=183	=183	=183	=183	=183	=183
[2FF/	.	([2C/	.	[2A/	.	(8f/L	.
.	.	.	.	.	.	8e/	>
!	!	!	!	!	!LO:HP:a	!	!
.	.	.	.	.	>	8d/	.
!	!	!	!LO:HP:a	!	!	!	!
.	>	.	>	.	.	8f/J	.
=184	=184	=184	=184	=184	=184	=184	=184
2FF/_	.	2C/]	.	2A/_	.	8a/L	.
.	.	.	.	.	.	8g/	.
.	.	.	.	.	.	8f/	.
.	.	.	.	.	.	8g/J	.
=185	=185	=185	=185	=185	=185	=185	=185
2FF/_	.	[2C#X/	.	2A/_	.	8a/L	.
.	.	.	.	.	.	8g/	.
.	.	.	.	.	]	8f/	.
.	]	.	]	.	.	8g/J	]]
=186	=186	=186	=186	=186	=186	=186	=186
8FF/]	.	8C#/])	.	8A/]	.	8a/)	.
8r	.	8r	.	8r	.	8r	.
!LO:MO:mod=!LO&colon;TX&colon;a&colon;i&colon;t=pizz	!	!	!	!	!	!	!
!LO:TX:a:i:t=piʒʒ	!	!	!	!	!	!	!
4CC#X/	pp	4r	.	4r	.	4r	.
=187	=187	=187	=187	=187	=187	=187	=187
4FF/	.	2r	.	2r	.	2r	.
4CC#X/	.	.	.	.	.	.	.
=188	=188	=188	=188	=188	=188	=188	=188
4FF/	.	2r	.	2r	.	2r	.
4CC#X/	.	.	.	.	.	.	.
!!LO:LB:g=original
=189	=189	=189	=189	=189	=189	=189	=189
2r	.	2r	.	4r	.	(8a/L	p
.	.	.	.	.	.	8g/	.
!	!	!	!	!	!LO:DY:rj	!	!
.	.	.	.	[4A/	p	8f/	.
.	.	.	.	.	.	8g/J	.
=190	=190	=190	=190	=190	=190	=190	=190
!	!	!	!LO:DY:rj	!	!	!	!
2r	.	[4C#X/	p	4A/_	.	8a/L	.
.	.	.	.	.	.	8g/J	.
.	.	8C#/]	.	8A/]	.	8f/)	.
.	.	8r	.	8r	.	8r	.
!!LO:REH:t=P
=191	=191	=191	=191	=191	=191	=191	=191
!LO:TX:b:i:t=P:color=blue:mod=	!LO:DY:rj	!	!	!	!	!LO:TX:a:i:t=P:color=blue:mod=	!
4FF/	pp	2r	.	2r	.	2r	.
4CC#X/	.	.	.	.	.	.	.
=192	=192	=192	=192	=192	=192	=192	=192
4FF/	.	2r	.	2r	.	2r	.
4CC#X/	.	.	.	.	.	.	.
=193	=193	=193	=193	=193	=193	=193	=193
2r	.	2r	.	4r	.	(8a/L	p
.	.	.	.	.	.	8g/J	.
!	!	!	!	!	!LO:DY:rj	!	!
.	.	.	.	4A/	p	4f/)	.
=194	=194	=194	=194	=194	=194	=194	=194
!	!LO:DY:rj	!	!	!	!	!	!
4FF/	p	2r	.	2r	.	2r	.
4CC#X/	.	.	.	.	.	.	.
=195	=195	=195	=195	=195	=195	=195	=195
2r	.	2r	.	2r	.	(8a/L	p
.	.	.	.	.	.	8g/J	.
.	.	.	.	.	.	4f/)	.
=196	=196	=196	=196	=196	=196	=196	=196
!	!LO:DY:rj	!	!	!	!	!	!
4FF/	p	2r	.	2r	.	2r	.
4CC#X/	.	.	.	.	.	.	.
=197	=197	=197	=197	=197	=197	=197	=197
!	!	!	!	!	!LO:DY:rj	!	!
2r	.	2r	.	(8a/L	p	2r	.
.	.	.	.	8g/J	.	.	.
.	.	.	.	[4f/	.	.	.
=198	=198	=198	=198	=198	=198	=198	=198
!	!	!	!	!	!	!	!LO:DY:rj
2r	.	2r	.	8f/L]	.	(8a/L	p
.	.	.	.	8e/J	.	8g/J	.
.	.	.	.	4d/)	.	4f/)	.
=199	=199	=199	=199	=199	=199	=199	=199
2r	.	2r	.	(8f/L	.	(8a/L	.
.	.	.	.	8e/J	.	8g/J	.
.	.	.	.	4d/)	.	4f/)	.
=200	=200	=200	=200	=200	=200	=200	=200
2r	.	2r	.	(4f/	.	(4a/	.
.	.	.	.	4e/	.	4g/	.
=201	=201	=201	=201	=201	=201	=201	=201
2r	.	2r	.	2d/)	.	2f/)	.
!!LO:PB:g=original
=202	=202	=202	=202	=202	=202	=202	=202
!	!LO:DY:rj	!	!	!	!	!	!
4FF/	p	2r	.	2r	.	2r	.
4CC#X/	.	.	.	.	.	.	.
=203	=203	=203	=203	=203	=203	=203	=203
4EE/	.	2r	.	2r	.	2r	.
4CC#X/	.	.	.	.	.	.	.
=204	=204	=204	=204	=204	=204	=204	=204
4EE/	.	2r	.	2r	.	2r	.
4CC#X/	.	.	.	.	.	.	.
=205	=205	=205	=205	=205	=205	=205	=205
!	!	!	!	!	!LO:DY:rj	!	!LO:DY:rj
2r	.	2r	.	(4e/	p	(4g/	p
.	.	.	.	4d/	.	4f/	.
=206	=206	=206	=206	=206	=206	=206	=206
2r	.	2r	.	2c#X/)	.	2e/)	.
=207	=207	=207	=207	=207	=207	=207	=207
!	!LO:DY:rj	!	!	!	!	!	!
4EE/	pp	2r	.	2r	.	2r	.
4CC#X/	.	.	.	.	.	.	.
=208	=208	=208	=208	=208	=208	=208	=208
4EE/	.	2r	.	2r	.	2r	.
4CC#X/	.	.	.	.	.	.	.
=209	=209	=209	=209	=209	=209	=209	=209
2r	.	[2A/	pp	2r	.	2r	.
=210	=210	=210	=210	=210	=210	=210	=210
2r	.	2A/_	.	2r	.	2r	.
=211	=211	=211	=211	=211	=211	=211	=211
!	!LO:DY:rj	!	!	!	!	!	!
4EE/	pp	2A/_	.	2r	.	2r	.
4BBB#X/	.	.	.	.	.	.	.
=212	=212	=212	=212	=212	=212	=212	=212
4EE/	.	2A/_	.	2r	.	2r	.
4BBB#X/	.	.	.	.	.	.	.
=213	=213	=213	=213	=213	=213	=213	=213
4EE/	.	2A/_	.	2r	.	2r	.
4r	.	.	.	.	.	.	.
=214	=214	=214	=214	=214	=214	=214	=214
4BBB#X/	.	2A/_	.	2r	.	2r	.
4r	.	.	.	.	.	.	.
=215	=215	=215	=215	=215	=215	=215	=215
4EE/	.	2A/_	.	2r	.	2r	.
4r	.	.	.	.	.	.	.
=216	=216	=216	=216	=216	=216	=216	=216
4BBB#X/	.	2A/_	.	2r	.	2r	.
4r	.	.	.	.	.	.	.
!!LO:LB:g=original
=217	=217	=217	=217	=217	=217	=217	=217
4EE/	.	2A/_	.	2r	.	2r	.
4r	.	.	.	.	.	.	.
=218	=218	=218	=218	=218	=218	=218	=218
4BBB#X/	.	2A/]	.	2r	.	2r	.
*kcancel	*	*kcancel	*	*kcancel	*	*kcancel	*
4r	.	.	.	.	.	.	.
=219||	=219||	=219||	=219||	=219||	=219||	=219||	=219||
*k[f#c#g#d#]	*	*k[f#c#g#d#]	*	*k[f#c#g#d#]	*	*k[f#c#g#d#]	*
*E:	*	*E:	*	*E:	*	*E:	*
!	!	!LO:TX:a:i:t=espressivo	!	!	!	!	!
!LO:TX:a:i:t=Tempo Iº	!	!LO:TX:a:i:t=Tempo Iº	!	!LO:TX:a:i:t=Tempo Iº	!	!LO:TX:a:i:t=Tempo Iº	!
4EE/	.	([2A/	.	4r	.	4r	.
!	!	!	!	!	!LO:DY:rj	!	!LO:DY:rj
4BBB#X/	.	.	.	8e'/L	pp	8g#'/L	pp
.	.	.	.	8d#'/J	.	8f#'/J	.
=220	=220	=220	=220	=220	=220	=220	=220
4EE/	.	8A/]	.	4c#/	.	4e/	.
.	.	4.G#/)	.	.	.	.	.
4BBB#X/	.	.	.	(16d#/LL	.	(16f#/LL	.
.	.	.	.	16e/J	.	16g#/J	.
.	.	.	.	8f#/J)	.	8a/J)	.
=221	=221	=221	=221	=221	=221	=221	=221
4EE/	.	(4.G#/	.	[4e/	.	[4g#/	.
4BBB#X/	.	.	.	8e/]	.	8g#/]	.
.	.	8A/)	.	8r	.	8r	.
=222	=222	=222	=222	=222	=222	=222	=222
4EE/	.	([2A/	.	4r	.	4r	.
4BBB#X/	.	.	.	8e'/L	.	8g#'/L	.
.	.	.	.	8d#'/J	.	8f#'/J	.
=223	=223	=223	=223	=223	=223	=223	=223
4EE/	.	8A/]	.	4c#/	.	4e/	.
.	.	4.G#/)	.	.	.	.	.
4BBB#X/	.	.	.	(16d#/LL	.	(16f#/LL	.
.	.	.	.	16e/J	.	16g#/J	.
.	.	.	.	8f#/J)	.	8a/J)	.
=224	=224	=224	=224	=224	=224	=224	=224
4EE/	.	[2G#/	.	4e/	.	4g#/	.
4BBB#X/	.	.	.	8e'/L	.	8g#'/L	.
.	.	.	.	8e'/J	.	8g#'/J	.
=225	=225	=225	=225	=225	=225	=225	=225
4CC#/	.	8G#/]	<	4e/	.	4g#/	.
.	.	4c#/	.	.	.	.	.
4GG#/	.	.	[	(16e/LL	<	(16g#/LL	<
.	.	.	.	16f#/J	.	16a/J	.
.	.	[8B/	.	8g#/J)	[[	8b/J)	[[
!!LO:LB:g=original
=226	=226	=226	=226	=226	=226	=226	=226
4FF#/	.	8B/L]	.	4a^/	.	4cc#^\	.
.	.	(8A/	.	.	.	.	.
8GG#/L	.	8B/	.	(16a/LL	>	(16cc#\LL	>
.	.	.	.	16g#/J	.	16b\J	.
8AA/J	.	8c#/J)	.	8f#/J)	]	8a\J)	]]
=227	=227	=227	=227	=227	=227	=227	=227
4BB/	.	4A/	.	4c#/	.	4f#/	.
4BB/	.	8B'/L	.	8d#'/L	.	8g#'/L	.
.	.	8B'/J	.	8d#'/J	.	8g#'/J	.
=228	=228	=228	=228	=228	=228	=228	=228
4E\	.	4G#/	.	4B/	.	4e/	.
4EE/	.	4r	.	4r	.	4r	.
=229||	=229||	=229||	=229||	=229||	=229||	=229||	=229||
*k[]	*	*k[]	*	*k[]	*	*k[]	*
*C:	*	*C:	*	*C:	*	*C:	*
!	!	!	!	!	!	!LO:MO:mod=!LO&colon;TX&colon;a&colon;i&colon;t=pizz.	!
!	!	!	!	!	!	!LO:TX:b:i:t=piʒʒ	!
2r	.	2r	.	2r	.	4cc\	mf
.	.	.	.	.	.	4g/	.
=230	=230	=230	=230	=230	=230	=230	=230
4r	.	4r	.	2r	.	4cc\	.
!LO:TX:a:i:t=arco	!LO:DY:rj	!	!LO:DY:rj	!	!	!	!
(8G\L	p	(8e\L	p	.	.	4g/	.
8A\J)	.	8f\J)	.	.	.	.	.
=231	=231	=231	=231	=231	=231	=231	=231
!LO:TX:a:i:t=espressivo	!	!LO:TX:a:i:t=espressivo	!	!	!	!	!
(8.G\L	.	(8.e\L	.	2r	.	4cc\	.
16E\Jk	.	16c\Jk	.	.	.	.	.
8A\L	.	8f\L	.	.	.	4g/	.
8G\J)	.	8e\J)	.	.	.	.	.
=232	=232	=232	=232	=232	=232	=232	=232
(8.F\L	.	(8.d\L	.	2r	.	4cc\	.
16G\Jk	.	16e\Jk	.	.	.	.	.
8E\L	.	8c/L	.	.	.	4g/	.
8F\J)	.	8A/J)	.	.	.	.	.
=233	=233	=233	=233	=233	=233	=233	=233
(8E\L	<	(8G/L	<	2r	.	4cc\	.
8A\J)	.	8c/J)	.	.	.	.	.
(16A\LL	.	(16f\LL	.	.	.	4g/	.
16B\J	[	16g\J	[	.	.	.	.
8c\J)	.	8a\J)	.	.	.	.	.
=234	=234	=234	=234	=234	=234	=234	=234
(16e\LL	>	(16g\LL	>	2r	.	4cc\	.
16A\J	]	16f\J	.	.	.	.	.
8c\J)	.	8e\J)	]	.	.	.	.
4ryy	.	4r	.	.	.	4g/	.
!!LO:LB:g=original
=235	=235	=235	=235	=235	=235	=235	=235
!	!	!	!	!LO:MO:mod=!LO&colon;TX&colon;a&colon;i&colon;t=pizz.	!	!	!
!	!	!	!	!LO:TX:b:i:t=piʒʒ	!	!	!
2r	.	2r	.	4ee\	.	2r	.
.	.	.	.	4cc\	.	.	.
=236	=236	=236	=236	=236	=236	=236	=236
2r	.	4r	p	4ee\	.	4r	p
.	.	(8G#X/L	.	4cc\	.	(8e/L	.
.	.	8B/J)	.	.	.	8d/J)	.
=237	=237	=237	=237	=237	=237	=237	=237
!	!	!	!	!	!	!LO:TX:a:i:t=espressivo	!
2r	.	(8.A/L	.	4ee\	.	(8.c/L	.
.	.	16F#X/Jk	<	.	.	16d/Jk	<
.	.	8G\L	.	4cc\	.	8e/L	.
.	.	8e\J)	.	.	.	8g/J)	.
=238	=238	=238	=238	=238	=238	=238	=238
2r	.	(8.g^\L	[	4ee\	.	(8.b^/L	[
.	.	16fn\Jk	.	.	.	16a/Jk	.
.	.	8e\L	.	4cc\	.	8g/L	.
.	.	8d\J)	.	.	.	8f/J)	.
=239	=239	=239	=239	=239	=239	=239	=239
2r	.	(8A/L	.	4ee\	.	(8c/L	.
.	.	8c/J)	.	.	.	8e/J)	.
.	.	(16A/LL	>	4cc\	.	(16f/LL	>
.	.	16B/J	.	.	.	16g/J	.
.	.	8c/J)	.	.	.	8a/J)	.
=240	=240	=240	=240	=240	=240	=240	=240
2r	.	(16e/LL	.	4ee\	.	(16g/LL	.
.	.	16A/J	.	.	.	16f/JJ	.
.	.	8c/J)	]	.	.	4e/)	]
.	.	4r	.	4cc\	.	.	.
.	.	.	.	.	.	[8e/	.
=241	=241	=241	=241	=241	=241	=241	=241
!LO:MO:mod=!LO&colon;TX&colon;a&colon;i&colon;t=pizz.	!	!	!	!	!	!	!
!LO:TX:a:i:t=piʒʒ	!LO:DY:rj	!	!	!	!	!	!
4G#X\	mf	2r	.	2r	.	8e/L]	.
.	.	.	.	.	.	16d'/L	.
.	.	.	.	.	.	16f'/JJ	.
4E\	.	.	.	.	.	(16G#X/LL	.
.	.	.	.	.	.	16B/)	.
.	.	.	.	.	.	16c'/	.
.	.	.	.	.	.	16d'/JJ	.
=242	=242	=242	=242	=242	=242	=242	=242
2r	.	2r	.	4ee\	mf	16c/LL	.
.	.	.	.	.	.	16B/JJ	.
.	.	.	.	.	.	4A/	.
.	.	.	.	4cc\	.	.	.
!	!	!	!	!	!	!	!LO:HP:t=crescendo
.	.	.	.	.	.	(8e/	<
=243	=243	=243	=243	=243	=243	=243	=243
!	!	!LO:MO:mod=!LO&colon;TX&colon;a&colon;i&colon;t=pizz.	!	!	!	!	!
!	!	!LO:TX:b:i:t=piʒʒ.	!	!	!	!	!
2r	.	4B/	mf	2r	.	8g/L)	.
.	.	.	.	.	.	16f/L	.
.	.	.	.	.	.	16a/JJ	.
.	.	4G/	.	.	.	(16B/LL	.
.	.	.	.	.	.	16d/)	.
.	.	.	.	.	.	16g/	.
.	.	.	.	.	.	16f/JJ	.
!!LO:PB:g=original
!!LO:REH:t=R
=244	=244	=244	=244	=244	=244	=244	=244
!LO:TX:b:i:t=R:color=blue:mod=	!	!	!	!	!	!LO:TX:a:i:t=R:color=blue:mod=	!LO:DY:rj
4E-X 4AA-X/	f	4A-X 4E-X/	f	4ccc\	f	16e-X^/LL	f
.	.	.	.	.	.	16d/JJ	.
.	.	.	.	.	.	4c/	.
4r	.	4r	.	4aa-X\	.	.	.
.	.	.	.	.	.	8d/	.
=245	=245	=245	=245	=245	=245	=245	=245
2r	.	4gg\	f	2r	.	16e-X/LL	.
.	.	.	.	.	.	16d/JJ	.
.	.	.	.	.	.	4c/	.
.	.	4ee-X\	.	.	.	.	.
.	.	.	.	.	.	8d/	.
=246	=246	=246	=246	=246	=246	=246	=246
!	!	!	!	!	!LO:DY:rj	!	!
2r	.	2r	.	4c/	f	16e-X/LL	.
.	.	.	.	.	.	16d/	.
.	.	.	.	.	.	16f/	.
.	.	.	.	.	.	[16e-/JJ	.
.	.	.	.	4A-X/	.	16e-/LL]	.
.	.	.	.	.	.	16B/	.
.	.	.	.	.	.	16c/	.
.	.	.	.	.	.	16d/JJ	.
=247	=247	=247	=247	=247	=247	=247	=247
4G\	f	2r	.	2r	.	16e-X/LL	.
.	.	.	.	.	.	16d/	.
.	.	.	.	.	.	16f/	.
.	.	.	.	.	.	[16e-/JJ	.
4E-X\	.	.	.	.	.	16e-/LL]	.
.	.	.	.	.	.	16B/	.
.	.	.	.	.	.	16c/	.
.	.	.	.	.	.	16e-/JJ	.
=248	=248	=248	=248	=248	=248	=248	=248
!	!LO:DY:a	!	!LO:DY:a	!	!LO:DY:rj	!	!
4C 4FF/	sfz	4e-X 4A\	sfz	4ff\	f	16a^/LL	.
.	.	.	.	.	.	16g/JJ	.
.	.	.	.	.	.	4f/	.
4r	.	4r	.	4dd\	.	.	.
.	.	.	.	.	.	8g/	.
=249	=249	=249	=249	=249	=249	=249	=249
2r	.	4cc\	f	2r	.	16a/LL	.
.	.	.	.	.	.	16b-X/JJ	.
.	.	.	.	.	.	4cc\	.
.	.	4a\	.	.	.	.	.
.	.	.	.	.	.	8ee\	.
=250	=250	=250	=250	=250	=250	=250	=250
4r	.	4r	.	4d/	f	16ff\LL	.
.	.	.	.	.	.	16ee\JJ	.
.	.	.	.	.	.	4dd\	.
!	!LO:DY:rj	!	!LO:DY:rj	!	!	!	!
4BB-X/	f	4b-X 4d\	f	4B-X/	.	.	.
.	.	.	.	.	.	8ee\	.
!!LO:LB:g=original
=251	=251	=251	=251	=251	=251	=251	=251
4F 4AA 4DD/	.	4a\	.	4f 4A/	.	16ff\LL	.
.	.	.	>	.	.	16ee\JJ	>
.	.	.	.	.	.	4dd\	.
4r	.	4f\	]	4r	.	.	.
.	.	.	.	.	p	8ee\	]
=252	=252	=252	=252	=252	=252	=252	=252
!	!	!	!	!LO:MO:null:mod=!LO&colon;TX&colon;a&colon;i&colon;t=arco	!	!	!
!LO:TX:a:i:t=arco	!LO:DY:rj	!	!	!	!	!	!LO:DY:rj
8EE'/L	p	4g#X\	mf	16dd'\LL	.	16ff'\LL	p
!	!	!	!	!LO:MO:mod=.	!	!	!
!	!	!	!	!LO:TX:a:i:t=arco	!	!	!
.	.	.	.	16cc#X'\	.	16ee'\	.
8EE'/J	.	.	.	16ee'\	.	16gg'\	.
.	.	.	.	[16dd\JJ	.	[16ff\JJ	.
4EE/	.	4e\	.	16dd\LL]	.	16ff\LL]	.
.	.	.	.	16a#X'\	.	16cc#X'\	.
.	.	.	.	16b'\	.	16dd'\	.
.	.	.	.	16cc#'\JJ	.	16ee'\JJ	.
=253	=253	=253	=253	=253	=253	=253	=253
16EE/LL	.	4g#X\	.	16dd'\LL	.	16ff'\LL	.
16EE/J	.	.	.	16cc#X'\	.	16ee'\	.
8EE/J	.	.	.	16ee'\	.	16gg'\	.
.	.	.	.	[16dd\JJ	.	[16ff\JJ	.
[4EE/	.	4e\	.	16dd\LL]	.	16ff\LL]	.
.	.	.	.	16a#X'\	.	16cc#X'\	.
.	.	.	.	16b'\	.	16dd'\	.
.	.	.	.	16cc#'\JJ	.	16ee'\JJ	.
=254	=254	=254	=254	=254	=254	=254	=254
8EE/]	.	4g#X\	.	16dd'\LL	.	16ff'\LL	.
.	.	.	.	16cc#X'\	.	16ee'\	.
8r	.	.	.	16ee'\	.	16gg'\	.
.	.	.	.	16dd'\JJ	.	16ff'\JJ	.
4r	.	4e\	.	16a#X'\LL	.	16cc#X'\LL	.
.	.	.	.	16b'\	.	16dd'\	.
.	.	.	.	16cc#'\	.	16ee'\	.
.	.	.	.	16dd'\JJ	.	16ff'\JJ	.
=255	=255	=255	=255	=255	=255	=255	=255
2r	.	4dd\	.	16ee'\LL	.	16gg#X'\LL	.
.	.	.	.	16ff'\	.	16aa'\	.
.	.	.	.	16gg#X'\	.	16bb'\	.
!	!	!	!	!	!LO:HP:t=crescendo	!	!
!	!	!	!	!	!LO:MO:mod=.	!	!
.	.	.	.	16ff'\JJ	<	16ddd'\JJ	.
!	!	!	!LO:MO:mod=!null:null	!	!	!	!LO:MO:mod=!null:null
!	!	!	!LO:HP:t=crescendo	!	!LO:MO:null:mod=<	!	!LO:HP:t=crescendo
.	.	4b\	<	16ee'\LL	.	16gg#'\LL	<
.	.	.	.	16dd'\	.	16bb'\	.
.	.	.	.	16cc'\	.	16ee'\	.
.	.	.	.	16b'\JJ	.	16gg#'\JJ	.
=256	=256	=256	=256	=256	=256	=256	=256
!	!LO:DY:rj	!	!	!	!	!	!
8EE/L	mf	4ee\	.	16cc'\LL	.	16aa'\LL	.
.	.	.	.	16ee'\	.	16bb'\	.
8EE/J	.	.	.	16aa'\	.	16ccc'\	.
.	.	.	.	16ggn'\JJ	.	16eee'\JJ	.
4EE/	.	4cc\	.	16ff'\LL	.	16aa'\LL	.
.	.	.	.	16ee'\	.	16ccc'\	.
.	.	.	.	16dd'\	.	16ee'\	.
.	.	.	.	16cc'\JJ	.	16aa'\JJ	.
!!LO:LB:g=original
=257	=257	=257	=257	=257	=257	=257	=257
16EE/LL	.	4ee\	.	16ff#X'\LL	.	16aa#X'\LL	.
16EE/J	.	.	.	16gg'\	.	16bb'\	.
!	!LO:HP:a	!	!	!	!	!	!
8EE/J	<	.	.	16aa#X'\	.	16ccc#X'\	.
.	.	.	.	16gg'\JJ	.	16eee'\JJ	.
[4EE/	.	4cc#X\	.	16ff#'\LL	.	16aa#'\LL	.
.	.	.	.	16ee'\	.	16ccc#'\	.
.	[	.	.	16dd'\	.	16ff#X'\	.
.	.	.	.	16cc#X'\JJ	.	16aa#'\JJ	.
=258	=258	=258	=258	=258	=258	=258	=258
8EE/]	.	4ff#X\	.	16dd'\LL	.	16bb'\LL	.
.	.	.	.	16ff#X'\	.	16ccc#X'\	.
8r	.	.	.	16bb'\	.	16ddd'\	.
.	.	.	.	16aan'\JJ	.	16fff#X'\JJ	.
4r	.	4dd\	.	16gg'\LL	.	16bb'\LL	.
.	.	.	.	16ff#'\	.	16ddd'\	.
.	.	.	.	16ee'\	.	16ff#X'\	.
.	.	.	.	16dd'\JJ	.	16bb'\JJ	.
!!LO:REH:t=S
=259	=259	=259	=259	=259	=259	=259	=259
!LO:TX:b:i:t=S:color=blue:mod=	!LO:DY:rj	!	!	!	!LO:DY:rj	!	!
!LO:MO:mod=!LO&colon;TX&colon;a&colon;i&colon;t=pizz.	!	!	!	!	!	!	!
!LO:TX:b:i:t=piʒʒ	!	!	!	!	!	!LO:TX:a:i:t=S:color=blue:mod=	!LO:DY:rj
4c#X\	f	4r	.	16ee'\LL	f	16aa#X'\LL	f
.	.	.	.	16cc#X'\	.	16bb'\	.
.	.	.	.	16ee'\	.	16aa#'\	.
.	.	.	f	16cc#'\JJ	.	16bb'\JJ	.
*	*	*	*	*rep	*	*rep	*
!	!	!LO:TX:a:i:t=arco	!	!	!	!	!
4A#X\	.	8g'\L	.	16ee'\LL	.	16aa#'\LL	.
.	.	.	.	16cc#'\	.	16bb'\	.
.	.	8f#X'\J	.	16ee'\	.	16aa#'\	.
.	.	.	.	16cc#'\JJ	.	16bb'\JJ	.
*	*	*	*	*Xrep	*	*Xrep	*
=260	=260	=260	=260	=260	=260	=260	=260
*	*	*	*	*rep	*	*rep	*
4G\	.	4e\	.	16ee'\LL	.	16aa#X'\LL	.
.	.	.	.	16cc#X'\	.	16bb'\	.
.	.	.	.	16ee'\	.	16aa#'\	.
.	.	.	.	16cc#'\JJ	.	16bb'\JJ	.
*	*	*	*	*Xrep	*	*Xrep	*
*	*	*	*	*rep	*	*rep	*
4E\	.	(16f#X\LL	.	16ee'\LL	.	16aa#'\LL	.
.	.	16g\J	.	16cc#'\	.	16bb'\	.
.	.	8a\J)	.	16ee'\	.	16aa#'\	.
.	.	.	.	16cc#'\JJ	.	16bb'\JJ	.
*	*	*	*	*Xrep	*	*Xrep	*
=261	=261	=261	=261	=261	=261	=261	=261
*	*	*	*	*rep	*	*rep	*
4C#X/	.	[4g\	.	16ee'\LL	.	16aa#X'\LL	.
.	.	.	.	16cc#X'\	.	16bb'\	.
.	.	.	.	16ee'\	.	16aa#'\	.
.	.	.	.	16cc#'\JJ	.	16bb'\JJ	.
*	*	*	*	*Xrep	*	*Xrep	*
*	*	*	*	*rep	*	*rep	*
4AA#X/	.	8g\]	.	16ee'\LL	.	16aa#'\LL	.
.	.	.	.	16cc#'\	.	16bb'\	.
.	.	8r	.	16ee'\	.	16aa#'\	.
.	.	.	.	16cc#'\JJ	.	16bb'\JJ	.
*	*	*	*	*Xrep	*	*Xrep	*
=262	=262	=262	=262	=262	=262	=262	=262
4FF#X/	.	4r	.	16ee'\LL	.	16aan'\LL	.
.	.	.	.	16ccn'\	.	16bb'\	.
.	.	.	.	16ee'\	.	16aa'\	.
.	.	.	.	16cc'\JJ	.	16bb'\JJ	.
*	*	*	*	*rep	*	*rep	*
4cn\	.	8a'\L	.	16ee'\LL	.	16aan'\LL	.
.	.	.	.	16ccn'\	.	16bb'\	.
.	.	8g'\J	.	16ee'\	.	16aa'\	.
.	.	.	.	16cc'\JJ	.	16bb'\JJ	.
*	*	*	*	*Xrep	*	*Xrep	*
=263	=263	=263	=263	=263	=263	=263	=263
*	*	*	*	*rep	*	*rep	*
4An\	.	4f#X\	.	16ee'\LL	.	16aan'\LL	.
.	.	.	.	16ccn'\	.	16bb'\	.
.	.	.	.	16ee'\	.	16aa'\	.
.	.	.	.	16cc'\JJ	.	16bb'\JJ	.
*	*	*	*	*Xrep	*	*Xrep	*
*	*	*	*	*rep	*	*rep	*
4F#X\	.	(16g\LL	.	16ee'\LL	.	16aan'\LL	.
.	.	16a\J	.	16ccn'\	.	16bb'\	.
.	.	8b\J)	.	16ee'\	.	16aa'\	.
.	.	.	.	16cc'\JJ	.	16bb'\JJ	.
*	*	*	*	*Xrep	*	*Xrep	*
!!LO:LB:g=original
=264	=264	=264	=264	=264	=264	=264	=264
4E/	>	2a\	>	16ee'\LL	>	16aa'\LL	>
.	.	.	.	16cc'\	.	16bb'\	.
.	.	.	.	16ee'\	.	16aa'\	.
.	.	.	.	16cc'\JJ	.	16bb'\JJ	.
*	*	*	*	*rep	*	*rep	*
4C/	.	.	.	16ee'\LL	.	16aa'\LL	.
.	.	.	.	16cc'\	.	16bb'\	.
.	.	.	.	16ee'\	.	16aa'\	.
.	]]	.	]]	16cc'\JJ	]	16bb'\JJ	]
*	*	*	*	*Xrep	*	*Xrep	*
=265	=265	=265	=265	=265	=265	=265	=265
4BB/	mf	4a\	mf	16dd#X'\LL	mf	16aa#X'\LL	mf
.	.	.	.	16b'\	.	16bb'\	.
.	.	.	.	16dd#'\	.	16ccc'\	.
.	.	.	.	16b'\JJ	.	16bb'\JJ	.
*	*	*	*	*rep	*	*	*
4r	.	8g'\L	.	16dd#'\LL	.	16ccc'\LL	.
.	.	.	.	16b'\	.	16bb'\	.
.	.	8f#X'\J	.	16dd#'\	.	16aa#'\	.
.	.	.	.	16b'\JJ	.	16bb'\JJ	.
*	*	*	*	*Xrep	*	*	*
=266	=266	=266	=266	=266	=266	=266	=266
*	*	*	*	*rep	*	*	*
2r	.	8B'/L	.	16dd#X'\LL	.	16aa#X'\LL	.
.	.	.	.	16b'\	.	16bb'\	.
.	.	8f#X'/J	.	16dd#'\	.	16ccc'\	.
.	.	.	.	16b'\JJ	.	16bb'\JJ	.
*	*	*	*	*Xrep	*	*	*
.	.	4a^\	.	16dd#X'\LL	.	16ccc'\LL	.
.	.	.	.	16b'\	.	16bb'\	.
.	.	.	.	16dd#'\	.	16aan'\	.
.	.	.	.	16ff#X'\JJ	.	16ccc'\JJ	.
=267	=267	=267	=267	=267	=267	=267	=267
4c\	mf	8f#X'\L	.	16aa'\LL	.	16bb'\LL	.
.	.	.	.	16ee'\	.	16ccc'\	.
.	.	8g'\J	.	16cc'\	.	16eee'\	.
.	.	.	.	16ee'\JJ	.	16ccc'\JJ	.
*	*	*	*	*rep	*	*rep	*
4A\	.	4e^\	.	16aa'\LL	.	16bb'\LL	.
.	.	.	.	16ee'\	.	16ccc'\	.
.	.	.	.	16cc'\	.	16eee'\	.
.	.	.	.	16ee'\JJ	.	16ccc'\JJ	.
*	*	*	*	*Xrep	*	*Xrep	*
=268	=268	=268	=268	=268	=268	=268	=268
4G\	.	8d'\L	.	16aa'\LL	.	16aa#X'\LL	.
.	>	.	>	16gg'\	.	16bb'\	.
.	.	8c'\J	.	16ee'\	>	16eee'\	>
.	.	.	.	16gg'\JJ	.	16ccc'\JJ	.
*	*	*	*	*rep	*	*	*
4E\	.	4B^/	.	16aa'\LL	.	16aa#'\LL	.
.	.	.	.	16gg'\	.	16bb'\	.
.	]	.	.	16ee'\	.	16eee'\	.
.	.	.	]	16gg'\JJ	]	16bb'\JJ	]
*	*	*	*	*Xrep	*	*	*
=269	=269	=269	=269	=269	=269	=269	=269
!	!LO:DY:rj	!	!LO:DY:rj	!	!LO:DY:rj	!	!LO:DY:rj
4GG/	p	4fn\	p	16ffn'\LL	p	16aa#X'\LL	p
.	.	.	.	16dd'\	.	16bb'\	.
.	.	.	.	16ff'\	.	16ccc'\	.
.	.	.	.	16dd'\JJ	.	16bb'\JJ	.
*	*	*	*	*rep	*	*	*
4r	.	8e\L	.	16ffn'\LL	.	16ccc'\LL	.
.	.	.	.	16dd'\	.	16bb'\	.
.	.	8d\J	.	16ff'\	.	16aa#'\	.
.	.	.	.	16dd'\JJ	.	16bb'\JJ	.
*	*	*	*	*Xrep	*	*	*
!!LO:PB:g=original
=270	=270	=270	=270	=270	=270	=270	=270
2r	.	8G'/L	.	16ff'\LL	.	16aa#X'\LL	.
.	.	.	.	16dd'\	.	16bb'\	.
.	.	8d'/J	.	16ff'\	.	16ccc'\	.
.	.	.	.	16dd'\JJ	.	16bb'\JJ	.
.	.	4f^\	.	16ff'\LL	.	16aa#'\LL	.
.	.	.	.	16dd'\	.	16bb'\	.
.	.	.	.	16gg'\	.	16eee'\	.
.	.	.	.	16bb'\JJ	.	16ddd'\JJ	.
=271	=271	=271	=271	=271	=271	=271	=271
!	!LO:DY:rj	!	!	!	!	!	!
4G\	p	8d'\L	.	16gg'\LL	.	16bb'\LL	.
.	.	.	.	16ee-X'\	.	16ccc'\	.
.	.	8e-X'\J	.	16gg'\	.	16ddd'\	.
.	.	.	.	16ee-'\JJ	.	16ccc'\JJ	.
*	*	*	*	*rep	*	*	*
4E-X\	.	4c^>/	.	16gg'\LL	.	16ddd'\LL	.
.	.	.	.	16ee-'\	.	16ccc'\	.
.	.	.	.	16gg'\	.	16bb'\	.
.	.	.	.	16ee-'\JJ	.	16ccc'\JJ	.
*	*	*	*	*Xrep	*	*	*
=272	=272	=272	=272	=272	=272	=272	=272
*	*	*	*	*rep	*	*	*
4C/	.	8B-X'/L	.	16gg'\LL	.	16bb'\LL	.
.	.	.	.	16ee-X'\	.	16ccc'\	.
.	.	8A-X'/J	.	16gg'\	<	16ddd'\	<
.	.	.	.	16ee-'\JJ	.	16ccc'\JJ	.
*	*	*	*	*Xrep	*	*	*
*	*	*	*	*rep	*	*	*
4r	.	4G^/	.	16gg'\LL	.	16bb'\LL	.
.	.	.	.	16ee-'\	.	16ccc'\	.
.	.	.	.	16gg'\	.	16eee-X'\	.
.	.	.	.	16ee-'\JJ	[	16ddd'\JJ	[
*	*	*	*	*Xrep	*	*	*
!!LO:REH:t=T
=273	=273	=273	=273	=273	=273	=273	=273
!LO:TX:b:i:t=T:color=blue:mod=	!	!	!	!	!	!	!
!LO:TX:a:i:t=arco	!LO:DY:rj	!	!	!	!	!LO:TX:a:i:t=T:color=blue:mod=	!
8F#X'\L	mf	2r	.	16aan'\LL	mf	16ccc'\LL	mf
.	.	.	.	16dd'\	.	16ddd'\	.
8E'\J	.	.	.	16gg'\	.	16ccc'\	.
.	.	.	.	16dd'\JJ	.	16ddd'\JJ	.
*	*	*	*	*	*	*rep	*
4D^\	.	.	.	16ff#X'\LL	.	16ccc'\LL	.
.	.	.	.	16dd'\	.	16ddd'\	.
.	.	.	.	16ff#'\	.	16ccc'\	.
.	.	.	.	16dd'\JJ	.	16ddd'\JJ	.
*	*	*	*	*	*	*Xrep	*
=274	=274	=274	=274	=274	=274	=274	=274
*	*	*	*	*	*	*rep	*
(16E\LL	.	2r	.	16gg'\LL	.	16ccc'\LL	.
16F#X\J	.	.	.	16dd'\	.	16ddd'\	.
8G\J)	.	.	.	16bb'\	.	16ccc'\	.
.	.	.	.	16dd'\JJ	.	16ddd'\JJ	.
*	*	*	*	*	*	*Xrep	*
*	*	*	*	*	*	*rep	*
4F#\	.	.	.	16aa'\LL	.	16ccc'\LL	.
.	.	.	.	16dd'\	.	16ddd'\	.
.	.	.	.	16aa'\	.	16ccc'\	.
.	.	.	.	16dd'\JJ	.	16ddd'\JJ	.
*	*	*	*	*	*	*Xrep	*
!!LO:LB:g=original
=275	=275	=275	=275	=275	=275	=275	=275
8F#X'\L	.	8A'/L	mf	16ff#X'\LL	.	16aa'\LL	.
.	.	.	.	16dd'\	.	16ddd'\	.
8E'\J	.	8G'/J	.	16gg'\	.	16bb'\	.
.	.	.	.	16dd'\JJ	.	16ddd'\JJ	.
4D^\	.	4F#X^/	.	16aa'\LL	.	16ccc'\LL	.
.	.	.	.	16dd'\	.	16ddd'\	.
.	.	.	.	16aa'\	.	16ccc'\	.
.	.	.	.	16dd'\JJ	.	16ddd'\JJ	.
=276	=276	=276	=276	=276	=276	=276	=276
(16E\LL	.	(16G/LL	.	16gg'\LL	.	16bb'\LL	.
16F#X\J	.	16A/J)	.	16dd'\	.	16ddd'\	.
8G\J)	<	8B/J	<	16gg'\	.	16bb'\	.
.	.	.	.	16dd'\JJ	.	16ddd'\JJ	.
8F#'\L	.	8A'/L	.	16aa'\LL	.	16ccc'\LL	.
.	.	.	.	16dd'\	.	16ddd'\	.
8E'\J	.	8B'/J	.	16gg'\	.	16ccc'\	.
.	[	.	[	16dd'\JJ	.	16ddd'\JJ	.
=277	=277	=277	=277	=277	=277	=277	=277
4D^\	.	4c^\	.	16ff#X^\LL	.	16aa^\LL	<
.	.	.	.	16dd'\	<	16ddd'\	.
.	.	.	.	16ff#'\	.	16ccc'\	.
.	.	.	.	16dd'\JJ	.	16ddd'\JJ	.
*	*	*	*	*rep	*	*	*
4r	.	4r	.	16ff#'\LL	.	16ccc'\LL	.
.	.	.	.	16dd'\	.	16ddd'\	.
.	.	.	.	16ff#'\	[	16ccc'\	.
.	.	.	.	16dd'\JJ	.	16ddd'\JJ	[
*	*	*	*	*Xrep	*	*	*
=278	=278	=278	=278	=278	=278	=278	=278
2r	.	2r	.	16ff#X'\LL	>	16ccc'\LL	>
.	.	.	.	16dd'\	.	16ddd'\	.
.	.	.	.	16gg'\	.	16ccc'\	.
.	.	.	.	16dd'\JJ	.	16ddd'\JJ	.
*	*	*	*	*	*	*rep	*
.	.	.	.	16aa'\LL	.	16ccc'\LL	.
.	.	.	.	16dd'\	.	16ddd'\	.
.	.	.	.	16ff#'\	]	16ccc'\	.
.	.	.	.	16dd'\JJ	.	16ddd'\JJ	]
*	*	*	*	*	*	*Xrep	*
=279	=279	=279	=279	=279	=279	=279	=279
!	!	!	!LO:DY:rj	!	!	!	!
2r	.	4g#X\	f	2r	.	2r	.
!	!	!LO:MO:mod=!LO&colon;TX&colon;a&colon;i&colon;t=pizz.	!	!	!	!	!
!	!	!LO:TX:b:i:t=piʒʒ	!	!	!	!	!
.	.	4e#X\	.	.	.	.	.
=280	=280	=280	=280	=280	=280	=280	=280
!	!	!	!	!	!LO:DY:rj	!	!LO:DY:rj
2r	.	2r	.	16aa'\LL	p	16ccc'\LL	p
.	.	.	.	16dd'\	.	16ddd'\	.
.	.	.	.	16gg'\	.	16bb'\	.
.	.	.	.	16dd'\JJ	.	16ddd'\JJ	.
.	.	.	.	16ff#X'\LL	.	16aa'\LL	.
.	.	.	.	16dd'\	.	16ddd'\	.
.	.	.	.	16aa'\	.	16ccc'\	.
.	.	.	.	16dd'\JJ	.	16ddd'\JJ	.
!!LO:LB:g=original
=281	=281	=281	=281	=281	=281	=281	=281
2r	.	4g#X\	f	2r	.	2r	.
.	.	4e#X\	.	.	.	.	.
=282	=282	=282	=282	=282	=282	=282	=282
8g\L	p	2r	.	4r	.	4r	.
8e\J	.	.	.	.	p	.	p
4r	.	.	.	16gg'\LL	.	16ccc'\LL	.
.	.	.	.	16ee'\	.	16ddd'\	.
.	.	.	.	16gg'\	.	16ccc'\	.
.	.	.	.	16ee'\JJ	.	16ddd'\JJ	.
=283	=283	=283	=283	=283	=283	=283	=283
2r	.	4g#X\	f	2r	.	2r	.
.	.	4e#X\	.	.	.	.	.
=284	=284	=284	=284	=284	=284	=284	=284
!	!	!	!	!LO:MO:mod=!LO&colon;TX&colon;a&colon;i&colon;t=pizz.	!	!	!
!	!	!	!	!LO:TX:a:i:t=piʒʒ	!	!	!
4r	.	2r	.	8a/L	p	4r	.
.	p	.	.	8f#X/J	.	.	p
!LO:TX:a:i:t=arco	!	!	!	!	!	!	!
16F#X'\LL	.	.	.	4r	.	16A'/LL	.
16D'\	.	.	.	.	.	16d'/	.
16F#'\	.	.	.	.	.	16A'/	.
16D'\JJ	.	.	.	.	.	16d'/JJ	.
=285	=285	=285	=285	=285	=285	=285	=285
2r	.	4g#X\	f	2r	.	2r	.
.	.	4e#X\	.	.	.	.	.
=286	=286	=286	=286	=286	=286	=286	=286
!LO:MO:mod=!LO&colon;TX&colon;a&colon;i&colon;t=pizz.	!	!	!	!	!	!	!
!LO:TX:b:i:t=piʒʒ.	!LO:DY:rj	!	!	!	!	!	!
8g\L	p	2r	.	4r	.	2r	.
8e\J	.	.	.	.	.	.	.
4r	.	.	.	8a/L	p	.	.
.	.	.	.	8f#X/J	.	.	.
=287	=287	=287	=287	=287	=287	=287	=287
!	!	!	!LO:DY:rj	!	!	!	!
2r	.	8g#X\L	f	2r	.	4r	.
.	.	8e#X\J	.	.	.	.	.
!	!	!	!	!	!	!LO:MO:mod=!LO&colon;TX&colon;a&colon;i&colon;t=pizz.	!
!	!	!	!	!	!	!LO:TX:a:i:t=piʒʒ	!
.	.	4r	.	.	.	8a/L	p
.	.	.	.	.	.	8f/J	.
=288	=288	=288	=288	=288	=288	=288	=288
8g#X\L	p	4r	.	2r	.	2r	.
8e\J	.	.	.	.	.	.	.
!	!	!	!LO:DY:rj	!	!	!	!
4r	.	8g#X\L	f	.	.	.	.
.	.	8e#X\J	.	.	.	.	.
!!LO:REH:t=U
=289	=289	=289	=289	=289	=289	=289	=289
!LO:TX:b:i:t=U:color=blue:mod=	!	!	!	!	!	!LO:TX:a:i:t=U:color=blue:mod=	!
2r	.	2r	.	4r	.	8g#X/L	f
.	.	.	.	.	.	8e#X/J	.
!	!	!	!	!	!LO:DY:rj	!	!
.	.	.	.	8d/L	f	4r	.
.	.	.	.	8B/J	.	.	.
=290	=290	=290	=290	=290	=290	=290	=290
4r	.	8G#X/L	f	2r	.	2r	.
.	f	8E#X/J	.	.	.	.	.
8E\L	.	4r	.	.	.	.	.
8D#X\J	.	.	.	.	.	.	.
!!LO:LB:g=original
=291	=291	=291	=291	=291	=291	=291	=291
!	!LO:HP:t=diminuendo	!	!	!	!	!	!
8Dn/L	>	2r	.	2r	.	2r	.
8C#X/	.	.	.	.	.	.	.
8Cn/	.	.	.	.	.	.	.
8BB/J	.	.	.	.	.	.	.
=292	=292	=292	=292	=292	=292	=292	=292
8C/L	.	4r	.	4r	.	4r	.
8GG#X/	p	.	p	.	p	.	p
!	!	!LO:TX:a:i:t=arco	!	!LO:TX:a:i:t=arco	!	!LO:TX:a:i:t=arco	!
8C/	.	8E'/L	.	8c'/L	.	8e'/L	.
8GG#/J	.	8E'/J	.	8B'/J	.	8d'/J	.
=293	=293	=293	=293	=293	=293	=293	=293
8C/L	.	4E/	.	4A/	.	4c/	.
8BB/	.	.	.	.	.	.	.
8AA/	.	4E/	.	(16B/LL	.	(16d/LL	.
.	.	.	.	16c/J	.	16e/J	.
8GG#X/J	.	.	.	8d/J)	.	8f/J)	.
=294	=294	=294	=294	=294	=294	=294	=294
8C/L	.	[4E/	.	[4c/	.	[4e/	.
8BB/	.	.	.	.	.	.	.
8AA/	.	8E/]	.	8c/]	.	8e/]	.
8GG#X/J	.	8r	.	8r	.	8r	.
=295	=295	=295	=295	=295	=295	=295	=295
8C/L	.	4r	.	4r	.	4r	.
8BB/J	.	.	.	.	.	.	.
8C/L	.	8E'/L	.	8c'/L	.	8e'/L	.
8GG#X/J	.	8E'/J	.	8B'/J	.	8d'/J	.
=296	=296	=296	=296	=296	=296	=296	=296
8C/L	.	4E/	.	4A/	.	4c/	.
8BB/	.	.	.	.	.	.	.
8AA/	.	4E/	.	(16B/LL	.	(16d/LL	.
.	.	.	.	16c/J	.	16e/J	.
8GG#X/J	.	.	.	8d/J)	.	8f/J)	.
=297	=297	=297	=297	=297	=297	=297	=297
8C/L	.	4E/	.	4c/	.	4e/	.
8BB/	.	.	.	.	.	.	.
8AA/	.	8E'/L	.	8c'/L	.	8e'/L	.
8GG#X/J	.	8E'/J	.	8c'/J	.	8e'/J	.
=298	=298	=298	=298	=298	=298	=298	=298
8GGn/L	.	4E/	.	4c/	.	4e/	.
8FF#X/	<	.	<	.	.	.	.
8FFn/	.	8A'/L	.	16c/LL	<	(16e/LL	<
.	.	.	.	16d/J	.	16f/J	.
8EE/J	.	8G'/J	[	8e/J	[	8g/J)	[[
=299	=299	=299	=299	=299	=299	=299	=299
8DD/L	.	8F^/L	.	4f^/	.	4a^/	.
8CC#X/	[	8E'/	.	.	.	.	.
8DD/	.	8F'/	.	(16f/LL	.	(16a/LL	.
.	.	.	.	16e/)	.	16g/)	.
8EE/J	.	8G'/J	.	16d'/	.	16f'/	.
.	.	.	.	16c'/JJ	.	16e'/JJ	.
!!LO:PB:g=original
=300	=300	=300	=300	=300	=300	=300	=300
8FF/L	.	4F/	>	4A/	>	4d/	>
8FF#X/	>	.	.	.	.	.	.
8GG/	.	8E/L	.	8B/L	.	8e'/L	.
8GG#X/J	]]	8E/J	]]	8B/J	]]	8e'/J	.
=301	=301	=301	=301	=301	=301	=301	=301
8AA/L	<	4E/	.	4A/	.	4c/	]
8GG#X/	.	.	.	.	.	.	.
8GGn/	.	4r	.	4r	.	4r	.
8FF#X/J	[	.	.	.	.	.	.
=302	=302	=302	=302	=302	=302	=302	=302
8FFn/L	>	4r	.	4r	.	4r	.
8FF#X/	.	.	pp	.	pp	.	pp
8GG/	.	8E'/L	.	8B'/L	.	8e'/L	.
8GG#X/J	]	8E'/J	.	8B'/J	.	8e'/J	.
=303	=303	=303	=303	=303	=303	=303	=303
8AA/L	pp	4E/	.	4A/	.	4c/	.
8GG#X/	.	.	.	.	.	.	.
8GGn/	.	4r	.	4r	.	4r	.
8FF#X/J	.	.	.	.	.	.	.
=304	=304	=304	=304	=304	=304	=304	=304
8FFn/L	.	4r	.	4r	.	4r	.
8FF#X/	.	.	pp	.	pp	.	pp
8GG/	.	8E'/L	.	8B'/L	.	8e'/L	.
8GG#X/J	.	8E'/J	.	8B'/J	.	8e'/J	.
=305	=305	=305	=305	=305	=305	=305	=305
!LO:TX:a:t=2:mod=	!	!LO:TX:a:t=2:mod=	!	!LO:TX:a:t=2:mod=	!	!LO:TX:a:t=2:mod=	!
2r	.	2r	.	2r	.	2r	.
=306	=306	=306	=306	=306	=306	=306	=306
2r	.	2r	.	2r	.	2r	.
=307||	=307||	=307||	=307||	=307||	=307||	=307||	=307||
!!!OMD:
!!!OMD-mod: Doppio Movimento
!LO:TX:a:i:t=arco	!	!	!	!	!	!	!
!LO:TX:a:i:t=Doppio Movimento:mod=	!	!LO:TX:a:i:t=Doppio Movimento:mod=	!	!LO:TX:a:i:t=Doppio Movimento:mod=	!	!LO:TX:a:i:t=Doppio Movimento:mod=	!
[2AA/	pp	[2E/	pp	[2c#X/	pp	(4e/	pp
.	.	.	.	.	.	4f#X/	.
=308	=308	=308	=308	=308	=308	=308	=308
2AA/_	.	2E/_	.	2c#/_	.	4a/	.
.	.	.	.	.	.	8g#X/L	.
.	.	.	.	.	.	8b/J	.
=309	=309	=309	=309	=309	=309	=309	=309
2AA/_	.	2E/_	.	2c#/_	.	4a/	.
.	.	.	.	.	.	4f#X/)	.
=310	=310	=310	=310	=310	=310	=310	=310
2AA/_	.	2E/_	.	2c#/_	.	(4g#X/	.
.	.	.	.	.	.	4a/	.
=311	=311	=311	=311	=311	=311	=311	=311
2AA/_	.	2E/_	.	2c#/_	.	4cc#X\	.
.	.	.	.	.	.	8b\L	.
.	.	.	.	.	.	8dd\J	.
!!LO:LB:g=original
=312	=312	=312	=312	=312	=312	=312	=312
2AA/]	.	2E/]	.	2c#/]	.	4cc#X\)	<
.	.	.	.	.	.	(4ee\	.
=313	=313	=313	=313	=313	=313	=313	=313
[2AA/	.	[2E/	.	[2c#X/	.	4ccc#X\	[
.	.	.	.	.	.	4bb\	.
=314	=314	=314	=314	=314	=314	=314	=314
2AA/_	.	2E/_	.	2c#/_	.	4ee\	.
.	.	.	.	.	.	8ff#X\L	.
.	.	.	.	.	.	8aa\J	.
=315	=315	=315	=315	=315	=315	=315	=315
2AA/]	.	2E/]	.	2c#/]	.	4gg#X\	>
.	.	.	.	.	.	4ee\)	.
=316	=316	=316	=316	=316	=316	=316	=316
!	!	!	!	!	!LO:MO:null:mod=!LO&colon;DY&colon;ed=brack	!	!
!	!	!	!	!	!	!	!
!	!	!	!	!	!LO:MO:mod=p <	!	!
[2AA/	.	[2F/	.	(8d/L	<	[2dd\	.
.	.	.	.	8e/	.	.	.
.	.	.	.	8f/	.	.	.
.	.	.	.	8b/J	[[	.	]
=317	=317	=317	=317	=317	=317	=317	=317
4AA/]	.	4F/]	.	8a/L	.	4dd\]	.
.	.	.	.	8b/	.	.	.
4r	.	4r	.	8a/	>	4r	.
.	.	.	.	8f/J	.	.	.
=318	=318	=318	=318	=318	=318	=318	=318
2r	.	8r	.	8d/)	.	2r	.
!	!	!	!LO:DY:rj	!	!	!	!
.	.	(8B/L	p	8r	]	.	.
.	.	8A/	.	4r	.	.	.
.	.	8F/J	.	.	.	.	.
=319	=319	=319	=319	=319	=319	=319	=319
8r	.	8D/)	.	2r	.	2r	.
(8BB/L	p	8r	.	.	.	.	.
8AA/	.	4r	.	.	.	.	.
8GG/J)	.	.	.	.	.	.	.
=320	=320	=320	=320	=320	=320	=320	=320
4FF'/	.	2r	.	2r	.	2r	.
4CC#X'/	.	.	.	.	.	.	.
=321||	=321||	=321||	=321||	=321||	=321||	=321||	=321||
!LO:TX:a:i:t=Tempo Iº	!	!LO:TX:a:i:t=Tempo Iº	!	!LO:TX:a:i:t=Tempo Iº	!	!LO:TX:a:i:t=Tempo Iº	!
[2DD/	.	2r	.	2r	.	2r	.
=322	=322	=322	=322	=322	=322	=322	=322
2DD/_	.	4r	.	4r	.	4r	.
!	!	!	!LO:DY:rj	!	!LO:DY:rj	!	!LO:DY:rj
.	.	8F'/L	p	8A'/L	p	8d'/L	p
.	.	8E'/J	.	8A'/J	.	8c'/J	.
=323	=323	=323	=323	=323	=323	=323	=323
2DD/_	.	4D/	.	2A/	.	4B/	.
.	.	(16E/LL	.	.	.	(16c/LL	.
.	.	16F/J	.	.	.	16d/J	.
.	.	8G/J)	.	.	.	8e/J)	.
!!LO:LB:g=original
=324	=324	=324	=324	=324	=324	=324	=324
2DD/]	.	[4F/	.	[4A/	.	[4d/	.
.	.	8F/]	.	8A/]	.	8d/]	.
.	.	8r	.	8r	.	8r	.
=325	=325	=325	=325	=325	=325	=325	=325
!	!LO:DY:rj	!	!	!	!	!	!
8FF'/L	pp	2r	.	2r	.	2r	.
8DD#X'/J	.	.	.	.	.	.	.
!LO:MO:mod=!null:null	!	!	!	!	!	!	!
!LO:T:color=blue	!	!	!	!	!	!	!
[4EE/	.	.	.	.	.	.	.
=326	=326	=326	=326	=326	=326	=326	=326
2EE/_	.	4r	.	4r	.	4r	.
!	!	!	!LO:DY:rj	!	!LO:DY:rj	!	!LO:DY:rj
.	.	8F'/L	pp	8G#X'/L	pp	8d'/L	pp
.	.	8E'/J	.	8G#'/J	.	8c'/J	.
=327	=327	=327	=327	=327	=327	=327	=327
2EE/_	.	4D/	.	[2G#X/	.	4B/	.
.	.	(16E/LL	.	.	.	(16c/LL	.
.	.	16F/J	.	.	.	16d/J	.
.	.	8G/J)	.	.	.	8e/J)	.
=328	=328	=328	=328	=328	=328	=328	=328
2EE/_	.	([2F/	.	2G#/_	.	([2d/	.
=329	=329	=329	=329	=329	=329	=329	=329
2EE/]	.	4F/]	.	2G#/]	.	4d/]	.
.	.	4E/)	.	.	.	4c/)	.
=330	=330	=330	=330	=330	=330	=330	=330
!LO:TX:a:i:t=lunga:mod=	!	!LO:TX:a:i:t=lunga:mod=	!	!LO:TX:a:i:t=lunga:mod=	!	!LO:TX:a:i:t=lunga:mod=	!
2EE;/	.	2D;/	.	2G#X;/	.	2B;/	.
=331	=331	=331	=331	=331	=331	=331	=331
!LO:MO:mod=!LO&colon;TX&colon;a&colon;i&colon;t=pizz.	!	!	!	!	!	!	!
!LO:TX:a:i:t=piʒʒ	!	!	!	!	!	!	!
4C/	ppp	2r	.	2r	.	2r	.
4GG#X/	.	.	.	.	.	.	.
=332	=332	=332	=332	=332	=332	=332	=332
4C/	.	2r	.	2r	.	2r	.
4GG#X/	.	.	.	.	.	.	.
=333	=333	=333	=333	=333	=333	=333	=333
4C/	.	2r	.	2r	.	2r	.
4r	.	.	.	.	.	.	.
=334	=334	=334	=334	=334	=334	=334	=334
!LO:TX:a:t=1.:mod=	!	!LO:TX:a:t=1.:mod=	!	!LO:TX:a:t=1:mod=	!	!LO:TX:a:t=1:mod=	!
2r	.	2r	.	2r	.	2r	.
!!LO:LB:g=original
=335	=335	=335	=335	=335	=335	=335	=335
!	!	!	!	!	!	!LO:MO:mod=!LO&colon;TX&colon;a&colon;i&colon;t=pizz.	!
!	!LO:DY:rj	!	!LO:DY:rj	!	!	!LO:TX:a:i:t=piʒʒ	!
8c\L	f	8c/L	f	8cc/L	f	8cc/L	f
!	!	!LO:MO:mod=!LO&colon;TX&colon;a&colon;i&colon;t=pizz.	!	!LO:MO:mod=!LO&colon;TX&colon;a&colon;i&colon;t=pizz.	!	!	!
!	!	!LO:TX:a:i:t=piʒʒ	!	!LO:TX:a:i:t=piʒʒ	!	!	!
8G#X\	.	8G#X/	.	8g#X/	.	8g#X/	.
8A\	.	8A/	.	8a/	.	8a/	.
8E#X\J	.	8E#X/J	.	8e#X/J	.	8e#X/J	.
=336	=336	=336	=336	=336	=336	=336	=336
8F#X\L	.	8F#X/L	.	8f#X/L	.	8f#X/L	.
8D\	.	8D/	.	8d/	.	8d/	.
8D#X\	.	8D#X/	.	8d#X/	.	8d#X/	.
8BB\J	.	8B/J	.	8B/J	.	8B/J	.
=337	=337	=337	=337	=337	=337	=337	=337
8C/L	.	8c/L	.	8c/L	.	8c/L	.
!LO:MO:null:mod=!LO&colon;TX&colon;a&colon;i&colon;t=accelerando	!	!LO:MO:null:mod=!LO&colon;TX&colon;a&colon;i&colon;t=accelerando	!	!LO:MO:mod=!LO&colon;TX&colon;a&colon;i&colon;t=accelerando	!	!LO:MO:mod=!LO&colon;TX&colon;a&colon;i&colon;t=accelerando	!
!	!	!	!	!LO:TX:a:i:t=accelerando:color=blue	!	!LO:TX:a:i:t=accelerando:color=blue	!
8GG#X/	.	8G#X/	.	8G#X/	.	8G#X/	.
!LO:TX:a:i:t=accelerando:color=blue:mod=	!	!LO:TX:a:i:t=accelerando:color=blue:mod=	!	!	!	!	!
8C/	.	8C/	.	8c/	.	8c/	.
8GG#/J	.	8G#/J	.	8G#/J	.	8G#/J	.
=338	=338	=338	=338	=338	=338	=338	=338
8C/L	.	8C/L	.	8c/L	.	8c/L	.
8GG#X/	.	8G#X/	.	8G#X/	.	8G#X/	.
8C/	.	8C/	.	8c/	.	8c/	.
8GG#/J	.	8G#/J	.	8G#/J	.	8G#/J	.
=339	=339	=339	=339	=339	=339	=339	=339
4C/	.	4C/	.	4c/	.	4c/	.
4r	.	4r	.	4r	.	4r	.
=340	=340	=340	=340	=340	=340	=340	=340
4C/	.	4G#X 4E/	.	4e 4c/	.	4g#X 4c/	.
4r	.	4r	.	4r	.	4r	.
=341	=341	=341	=341	=341	=341	=341	=341
!	!LO:DY:rj	!	!LO:DY:rj	!	!LO:DY:rj	!	!LO:DY:rj
4E 4AA/	f	4A 4E/	f	4e 4c/	f	4a 4e 4c/	f
!LO:MO:null:mod=!LO&colon;TX&colon;a&colon;i&colon;t=sosten	!	!	!	!	!	!	!
!	!LO:DY:rj	!LO:TX:a:i:t=sosten	!LO:DY:rj	!LO:TX:a:i:t=sosten	!LO:DY:rj	!LO:TX:a:i:t=sosten	!LO:DY:rj
8C/L	p	8c/L	p	8c/L	p	8c/L	p
!LO:TX:a:i:t=sosten:mod=	!	!	!	!	!	!	!
8GG#X/J	.	8G#X/J	.	8G#X/J	.	8G#X/J	.
=342	=342	=342	=342	=342	=342	=342	=342
4AA/	.	4A/	.	4A/	.	4A/	.
4r	.	4r	.	4r	.	4r	.
==	==	==	==	==	==	==	==
*-	*-	*-	*-	*-	*-	*-	*-
!!!system-decoration: {(s1,s2,s3,s4)}
!!!RDF**kern: > = above
!!!RDF**kern: < = below
!!!ENC-modern: Leszek Kubiak
!!!END-modern: 2022-08-18
!!!ENC: Marta Lawrence
!!!END: 2021-08-30
!!!ENC: Mateusz Solarz
!!!END: 2021-07-20
!!!filter-modern: sic -sq | autostem -r | shed -e "s/^(X?)rep$/$1REP/I" | shed -e "s/LO:DY:(a|b|rj)/LO:dy:$1/L" | modori -m
!!!YEC: Copyright 2022 Narodowy Instytut Fryderyka Chopina (https://polishscores.org)
!!!YEM: Licence CC BY 4.0 (https://creativecommons.org/licenses/by/4.0)
